!!!!SEGMENT: pl-kk--kk-i-83--001_anerio-giovanni-francesco--missa-pulchra-es-kyrie.krn
!!!cenid: 16xx:1340
!!!COM: Anerio, Giovanni Francesco
!!!COM-rismID: pe30000104
!!!CDT: 1569/07/07-1630/06/11
!!!CNT: Italian
!!!OPR: Missa pulchra es
!!!OTL: Kyrie
!!!OMV: 001
!!!PDT:
!!!AGN: Sacred; Mass
!!!SMS-siglum: PL-Kk
!!!SMS-shelfmark: Kk.I.83
!!!SMS-shelfwork: 001-001 M
!!!SMS-variant:
!!!SMS-altvar:
!!!NIFC-rismSourceID: 1001151647
!!!NIFC-rismChildID: 1001151647
!!!NIFC-islandoraID: pl-kk:2875
!!!URL-pdf-islandora: https://repozytorium.nifc.pl/islandora/object/pl-kk%3A2875/datastream/PDF/view
!!!URL-scan: https://polish.musicsources.pl/pl/lokalizacje/galeria/rekopisy/6143 @EN{Scan on Polish Music Sources Website} @PL{Skany w portalu Dziedzictwo Muzyki Polskiej w otwartym dostępie}
!!!ONB-nifc: UWAGA: części Mszy: 1. Kyrie, 2. Et in terra, 3. Patrem, 4. Sanctus, 5. Benedictus, 6. Agnus Dei
!!!AIN: 2 alto 2 bass 2 soprn 2 tenor
!!!key: a
**kern	**text	**mod-text	**kern	**text	**mod-text	**kern	**text	**mod-text	**kern	**text	**mod-text	**kern	**text	**mod-text	**kern	**text	**mod-text	**kern	**text	**mod-text	**kern	**text	**mod-text
*part8	*part8	*part8	*part7	*part7	*part7	*part6	*part6	*part6	*part5	*part5	*part5	*part4	*part4	*part4	*part3	*part3	*part3	*part2	*part2	*part2	*part1	*part1	*part1
*staff8	*staff8	*staff8	*staff7	*staff7	*staff7	*staff6	*staff6	*staff6	*staff5	*staff5	*staff5	*staff4	*staff4	*staff4	*staff3	*staff3	*staff3	*staff2	*staff2	*staff2	*staff1	*staff1	*staff1
*I"Baſsus II.	*	*	*I"Tenor 2	*	*	*I"Altus 2.	*	*	*I"Cantus 2.	*	*	*I"Baſsus I.	*	*	*I"Tenor I.	*	*	*I"Altus I.	*	*	*I"Cantus I.	*	*
*mI"Basso II	*	*	*mI"Tenore II	*	*	*mI"Alto II	*	*	*mI"Soprano II	*	*	*mI"Basso I	*	*	*mI"Tenore I	*	*	*mI"Alto I	*	*	*mI"Soprano I	*	*
*I'B 2	*	*	*I'T 2	*	*	*I'A 2	*	*	*I'S 2	*	*	*I'B 1	*	*	*I'T 1	*	*	*I'A 1	*	*	*I'S 1	*	*
*Ibass	*	*	*Itenor	*	*	*Ialto	*	*	*Isoprn	*	*	*Ibass	*	*	*Itenor	*	*	*Ialto	*	*	*Isoprn	*	*
*ICvox	*	*	*ICvox	*	*	*ICvox	*	*	*ICvox	*	*	*ICvox	*	*	*ICvox	*	*	*ICvox	*	*	*ICvox	*	*
*IGcoro	*	*	*IGcoro	*	*	*IGcoro	*	*	*IGcoro	*	*	*IGcoro	*	*	*IGcoro	*	*	*IGcoro	*	*	*IGcoro	*	*
*clefF4	*	*	*clefC4	*	*	*clefC3	*	*	*clefC1	*	*	*clefF4	*	*	*clefC4	*	*	*clefC3	*	*	*clefC1	*	*
*	*	*	*mclefGv2	*	*	*mclefG2	*	*	*mclefG2	*	*	*	*	*	*mclefGv2	*	*	*mclefG2	*	*	*mclefG2	*	*
*k[]	*	*	*k[]	*	*	*k[]	*	*	*k[]	*	*	*k[]	*	*	*k[]	*	*	*k[]	*	*	*k[]	*	*
*a:	*	*	*a:	*	*	*a:	*	*	*a:	*	*	*a:	*	*	*a:	*	*	*a:	*	*	*a:	*	*
*M2/1	*	*	*M2/1	*	*	*M2/1	*	*	*M2/1	*	*	*M2/1	*	*	*M2/1	*	*	*M2/1	*	*	*M2/1	*	*
*met(C|)	*	*	*met(C|)	*	*	*met(C|)	*	*	*met(C|)	*	*	*met(C|)	*	*	*met(C|)	*	*	*met(C|)	*	*	*met(C|)	*	*
*mmet(c|)	*	*	*mmet(c|)	*	*	*mmet(c|)	*	*	*mmet(c|)	*	*	*mmet(c|)	*	*	*mmet(c|)	*	*	*mmet(c|)	*	*	*mmet(c|)	*	*
=1-	=1-	=1-	=1-	=1-	=1-	=1-	=1-	=1-	=1-	=1-	=1-	=1-	=1-	=1-	=1-	=1-	=1-	=1-	=1-	=1-	=1-	=1-	=1-
!LO:MO:mod=*all\left	!	!	!LO:MO:mod=*all\left	!	!	!LO:MO:mod=*all\left	!	!	!LO:MO:mod=*all\left	!	!	!LO:MO:mod=*all\left	!	!	!LO:MO:mod=*all\left	!	!	!LO:MO:mod=*all\left	!	!	!LO:MO:mod=*all\left	!	!
*all\right	*	*	*all\right	*	*	*all\right	*	*	*all\right	*	*	*all\right	*	*	*all\right	*	*	*all\right	*	*	*all\right	*	*
!	!	!	!	!	!	!	!	!	!	!	!	!	!	!	!	!	!	!	!	!	!LO:TX:t=P:problem=tekst w miejscach niepewnych zgodnie z wydaniem w oprac. A. Patalas [konsultacja J.I.]	!	!
!	!	!	!	!	!	!	!	!	!	!	!	!	!	!	!	!	!	!LO:TX:t=P:problem=kreska pseudotaktowa:mod=	!	!	!LO:TX:t=P:problem=kreska pseudotaktowa:mod=	!	!
00r	.	.	00r	.	.	00r	.	.	00r	.	.	00r	.	.	1E	Ky-	Ky-	00r	.	.	0r	.	.
!	!	!	!	!	!	!	!	!	!	!	!	!	!	!	!LO:TX:t=P:problem=kreska pseudotaktowa:mod=	!	!	!	!	!	!	!	!
.	.	.	.	.	.	.	.	.	.	.	.	.	.	.	1G	-ri-	-ri-	.	.	.	.	.	.
=2-	=2-	=2-	=2-	=2-	=2-	=2-	=2-	=2-	=2-	=2-	=2-	=2-	=2-	=2-	=2-	=2-	=2-	=2-	=2-	=2-	=2-	=2-	=2-
.	.	.	.	.	.	.	.	.	.	.	.	.	.	.	2A/	-e	-e	.	.	.	1e	Ky-	Ky-
!	!	!	!	!	!	!	!	!	!	!	!	!	!	!	!LO:MO:mod=*2\left	!	!	!	!	!	!	!	!
*	*	*	*	*	*	*	*	*	*	*	*	*	*	*	*2\right	*	*	*	*	*	*	*	*
!	!	!	!	!	!	!	!	!	!	!	!	!	!	!	!LO:TX:t=P:problem=kreska pseudotaktowa:mod=	!	!	!	!	!	!	!	!
.	.	.	.	.	.	.	.	.	.	.	.	.	.	.	2c\	e-	e-	.	.	.	.	.	.
!	!	!	!	!	!	!	!	!	!	!	!	!	!	!	!	!	!	!	!	!	!LO:TX:t=P:problem=kreska pseudotaktowa:mod=	!	!
.	.	.	.	.	.	.	.	.	.	.	.	.	.	.	2c\	-ley-	-lei-	.	.	.	1g	-ri-	-ri-
.	.	.	.	.	.	.	.	.	.	.	.	.	.	.	2B\	.	.	.	.	.	.	.	.
=3-	=3-	=3-	=3-	=3-	=3-	=3-	=3-	=3-	=3-	=3-	=3-	=3-	=3-	=3-	=3-	=3-	=3-	=3-	=3-	=3-	=3-	=3-	=3-
!	!	!	!	!	!	!	!	!	!	!	!	!	!	!	!	!	!	!	!	!	!LO:MO:mod=*2\left	!	!
*	*	*	*	*	*	*	*	*	*	*	*	*	*	*	*	*	*	*	*	*	*2\right	*	*
00r	.	.	00r	.	.	00r	.	.	00r	.	.	00r	.	.	2.A/	-ſon	.	1e	Ky-	Ky-	2a\	-e	-e
!	!	!	!	!	!	!	!	!	!	!	!	!	!	!	!	!	!	!	!	!	!LO:TX:t=P:problem=kreska pseudotaktowa:mod=	!	!
.	.	.	.	.	.	.	.	.	.	.	.	.	.	.	.	.	.	.	.	.	2cc\	e-	e-
.	.	.	.	.	.	.	.	.	.	.	.	.	.	.	8G/L	.	.	.	.	.	.	.	.
!	!	!	!	!	!	!	!	!	!	!	!	!	!	!	!LO:TX:t=P:problem=kreska pseudotaktowa:mod=	!	!	!	!	!	!	!	!
.	.	.	.	.	.	.	.	.	.	.	.	.	.	.	8F/J	.	.	.	.	.	.	.	.
!	!	!	!	!	!	!	!	!	!	!	!	!	!	!	!	!	!	!LO:TX:t=P:problem=kreska pseudotaktowa:mod=	!	!	!	!	!
.	.	.	.	.	.	.	.	.	.	.	.	.	.	.	1E	.	.	1g	-ri-	-ri-	2cc\	-ley-	-lei-
!	!	!	!	!	!	!	!	!	!	!	!	!	!	!	!	!	!	!	!	!	!LO:TX:t=P:problem=kreska pseudotaktowa:mod=	!	!
.	.	.	.	.	.	.	.	.	.	.	.	.	.	.	.	.	.	.	.	.	2b\	-ſon	-son
=4-	=4-	=4-	=4-	=4-	=4-	=4-	=4-	=4-	=4-	=4-	=4-	=4-	=4-	=4-	=4-	=4-	=4-	=4-	=4-	=4-	=4-	=4-	=4-
!	!	!	!	!	!	!	!	!	!	!	!	!	!	!	!	!	!	!LO:MO:mod=*2\left	!	!	!	!	!
*	*	*	*	*	*	*	*	*	*	*	*	*	*	*	*	*	*	*2\right	*	*	*	*ij	*ij
.	.	.	.	.	.	.	.	.	.	.	.	.	.	.	2F/	.	-son	2a\	-e	-e	1.a	Ky-	Ky-
*	*	*	*	*	*	*	*	*	*	*	*	*	*	*	*	*ij	*ij	*	*	*	*	*	*
!	!	!	!	!	!	!	!	!	!	!	!	!	!	!	!LO:TX:t=P:problem=kreska pseudotaktowa:mod=	!	!	!LO:TX:t=P:problem=kreska pseudotaktowa:mod=	!	!	!	!	!
.	.	.	.	.	.	.	.	.	.	.	.	.	.	.	2D/	Ky-	Ky-	2f\	e-	e-	.	.	.
.	.	.	.	.	.	.	.	.	.	.	.	.	.	.	2F/	-ri-	-ri-	2f\	-ley-	-lei-	.	.	.
!	!	!	!	!	!	!	!	!	!	!	!	!	!	!	!LO:TX:t=P:problem=kreska pseudotaktowa:mod=	!	!	!LO:TX:t=P:problem=kreska pseudotaktowa:mod=	!	!	!LO:TX:t=P:problem=kreska pseudotaktowa:mod=	!	!
.	.	.	.	.	.	.	.	.	.	.	.	.	.	.	2C/	-e	-e	2e\	-ſon	-son	2g/	.	.
=5-	=5-	=5-	=5-	=5-	=5-	=5-	=5-	=5-	=5-	=5-	=5-	=5-	=5-	=5-	=5-	=5-	=5-	=5-	=5-	=5-	=5-	=5-	=5-
*	*	*	*	*	*	*	*	*	*	*	*	*	*	*	*	*	*	*	*ij	*ij	*	*	*
!	!	!	!	!	!	!	!	!	!	!	!	!LO:TX:t=P:problem=kreska pseudotaktowa:mod=	!	!	!	!	!	!	!	!	!	!	!
00r	.	.	00r	.	.	00r	.	.	00r	.	.	1r	.	.	4D/	e-	e-	2d\	Ky-	Ky-	1f	-ri-	-ri-
.	.	.	.	.	.	.	.	.	.	.	.	.	.	.	4E/	.	.	.	.	.	.	.	.
.	.	.	.	.	.	.	.	.	.	.	.	.	.	.	4F/	.	.	4c\	-ri-	-ri-	.	.	.
!	!	!	!	!	!	!	!	!	!	!	!	!	!	!	!LO:TX:t=P:problem=kreska pseudotaktowa:mod=	!	!	!LO:TX:t=P:problem=kreska pseudotaktowa:mod=	!	!	!	!	!
.	.	.	.	.	.	.	.	.	.	.	.	.	.	.	4G/	.	.	4B\	.	.	.	.	.
.	.	.	.	.	.	.	.	.	.	.	.	1AA	Ky-	Ky-	4A\	.	.	4c\	.	.	2e/	-e	-e
.	.	.	.	.	.	.	.	.	.	.	.	.	.	.	4B\	.	.	4d\	.	.	.	.	.
.	.	.	.	.	.	.	.	.	.	.	.	.	.	.	4c\	.	.	4e\	.	.	1a\	e-	e-
!	!	!	!	!	!	!	!	!	!	!	!	!	!	!	!LO:TX:t=P:problem=kreska pseudotaktowa:mod=	!	!	!	!	!	!	!	!
.	.	.	.	.	.	.	.	.	.	.	.	.	.	.	4d\	.	.	4f\	.	.	.	.	.
=6-	=6-	=6-	=6-	=6-	=6-	=6-	=6-	=6-	=6-	=6-	=6-	=6-	=6-	=6-	=6-	=6-	=6-	=6-	=6-	=6-	=6-	=6-	=6-
!	!	!	!	!	!	!	!	!	!	!	!	!LO:TX:t=P:problem=kreska pseudotaktowa:mod=	!	!	!	!	!	!LO:TX:t=P:problem=kreska pseudotaktowa:mod=	!	!	!	!	!
.	.	.	.	.	.	.	.	.	.	.	.	1C	-ri-	-ri-	2.c\	.	.	1e	-e	-e	.	.	.
!	!	!	!	!	!	!	!	!	!	!	!	!	!	!	!	!	!	!	!	!	!LO:TX:t=P:problem=kreska pseudotaktowa:mod=	!	!
.	.	.	.	.	.	.	.	.	.	.	.	.	.	.	.	.	.	.	.	.	2g/	.	.
.	.	.	.	.	.	.	.	.	.	.	.	.	.	.	4B\	.	.	.	.	.	.	.	.
.	.	.	.	.	.	.	.	.	.	.	.	2D/	-e	-e	4A\	.	.	2d\	e-	e-	2.f/	-le-	-le-
.	.	.	.	.	.	.	.	.	.	.	.	.	.	.	4G\	.	.	.	.	.	.	.	.
!	!	!	!	!	!	!	!	!	!	!	!	!LO:MO:mod=*2\left	!	!	!	!	!	!	!	!	!	!	!
*	*	*	*	*	*	*	*	*	*	*	*	*2\right	*	*	*	*	*	*	*	*	*	*	*
!	!	!	!	!	!	!	!	!	!	!	!	!	!	!	!LO:TX:t=P:problem=kreska pseudotaktowa:mod=	!	!	!	!	!	!	!	!
.	.	.	.	.	.	.	.	.	.	.	.	2F\	e-	e-	2A\	.	.	4c\	-ley-	-lei-	.	.	.
!	!	!	!	!	!	!	!	!	!	!	!	!	!	!	!	!	!	!LO:TX:t=P:problem=kreska pseudotaktowa:mod=	!	!	!LO:TX:t=P:problem=kreska pseudotaktowa:mod=	!	!
.	.	.	.	.	.	.	.	.	.	.	.	.	.	.	.	.	.	4B\	.	.	4g\	.	.
=7-	=7-	=7-	=7-	=7-	=7-	=7-	=7-	=7-	=7-	=7-	=7-	=7-	=7-	=7-	=7-	=7-	=7-	=7-	=7-	=7-	=7-	=7-	=7-
!	!	!	!LO:TX:t=P:problem=kreska pseudotaktowa:mod=	!	!	!	!	!	!LO:TX:t=P:problem=kreska pseudotaktowa:mod=	!	!	!	!	!	!	!	!	!	!	!	!	!	!
00r	.	.	00r	.	.	00r	.	.	0r	.	.	2F\	-ley-	-lei-	2F/	-ley-	-lei-	4c\	.	.	4a\	.	.
.	.	.	.	.	.	.	.	.	.	.	.	.	.	.	.	.	.	4d\	.	.	4b\	.	.
!	!	!	!	!	!	!	!	!	!	!	!	!LO:TX:t=P:problem=kreska pseudotaktowa:mod=	!	!	!LO:TX:t=P:problem=kreska pseudotaktowa:mod=	!	!	!	!	!	!	!	!
.	.	.	.	.	.	.	.	.	.	.	.	2E\	-ſon	-son	2G/	-ſon	-son	4e\	.	.	1cc	.	.
.	.	.	.	.	.	.	.	.	.	.	.	.	.	.	.	.	.	4c\	.	.	.	.	.
*	*	*	*	*	*	*	*	*	*	*	*	*	*ij	*ij	*	*	*	*	*	*	*	*	*
!	!	!	!	!	!	!	!	!	!	!	!	!	!	!	!	!	!	!LO:TX:t=P:problem=kreska pseudotaktowa:mod=	!	!	!	!	!
.	.	.	.	.	.	.	.	.	.	.	.	1D	Ky-	Ky-	2A/	Ky-	Ky-	1d	-ſon	-son	.	.	.
.	.	.	.	.	.	.	.	.	.	.	.	.	.	.	4G/	.	.	.	.	.	2b\	-y-	-i-
!	!	!	!	!	!	!	!	!	!	!	!	!	!	!	!LO:TX:t=P:problem=kreska pseudotaktowa:mod=	!	!	!	!	!	!	!	!
.	.	.	.	.	.	.	.	.	.	.	.	.	.	.	4F/	.	.	.	.	.	.	.	.
!	!	!	!	!	!	!	!	!	!	!	!	!	!	!	!LO:LB:g=original	!	!	!	!	!	!	!	!
=8-	=8-	=8-	=8-	=8-	=8-	=8-	=8-	=8-	=8-	=8-	=8-	=8-	=8-	=8-	=8-	=8-	=8-	=8-	=8-	=8-	=8-	=8-	=8-
!	!	!	!	!	!	!	!	!	!	!	!	!	!	!	!	!	!	!	!	!	!LO:TX:t=P:problem=kreska pseudotaktowa:mod=	!	!
.	.	.	.	.	.	.	.	.	1e	Ky-	Ky-	2C/	-ri-	-ri-	0G	.	.	2e\	Ky-	Ky-	1cc	-ſon	-ſon
!	!	!	!	!	!	!	!	!	!	!	!	!LO:TX:t=P:problem=kreska pseudotaktowa:mod=	!	!	!	!	!	!LO:TX:t=P:problem=kreska pseudotaktowa:mod=	!	!	!	!	!
.	.	.	.	.	.	.	.	.	.	.	.	2C/	-e	-e	.	.	.	2e\	-ri-	-ri-	.	.	.
!	!	!	!	!	!	!	!	!	!LO:TX:t=P:problem=kreska pseudotaktowa:mod=	!	!	!	!	!	!	!	!	!	!	!	!	!	!
.	.	.	.	.	.	.	.	.	1g	-ri-	-ri-	2C/	e-	e-	.	.	.	2e\	-e	-e	00r	.	.
!	!	!	!	!	!	!	!	!	!	!	!	!	!	!	!	!	!	!LO:TX:t=P:problem=kreska pseudotaktowa:mod=	!	!	!	!	!
.	.	.	.	.	.	.	.	.	.	.	.	2BB/	.	.	.	.	.	2d\	e-	e-	.	.	.
=9-	=9-	=9-	=9-	=9-	=9-	=9-	=9-	=9-	=9-	=9-	=9-	=9-	=9-	=9-	=9-	=9-	=9-	=9-	=9-	=9-	=9-	=9-	=9-
!	!	!	!	!	!	!	!	!	!LO:MO:mod=*2\left	!	!	!	!	!	!	!	!	!	!	!	!	!	!
*	*	*	*	*	*	*	*	*	*2\right	*	*	*	*	*	*	*	*	*	*	*	*	*	*
!	!	!	!	!	!	!LO:TX:t=P:problem=kreska pseudotaktowa:mod=	!	!	!	!	!	!	!	!	!LO:TX:t=P:problem=kreska pseudotaktowa:mod=	!	!	!	!	!	!	!	!
00r	.	.	1E	Ky-	Ky-	0r	.	.	2a\	-e	-e	1AA	-ley-	-lei-	1C	-ri-	-ri-	2c/	-le-	-le-	.	.	.
!	!	!	!	!	!	!	!	!	!LO:TX:t=P:problem=kreska pseudotaktowa:mod=	!	!	!	!	!	!	!	!	!	!	!	!	!	!
.	.	.	.	.	.	.	.	.	2cc\	e-	e-	.	.	.	.	.	.	2A/	-y-	-i-	.	.	.
!	!	!	!LO:TX:t=P:problem=kreska pseudotaktowa:mod=	!	!	!	!	!	!	!	!	!LO:TX:t=P:problem=kreska pseudotaktowa:mod=	!	!	!	!	!	!LO:TX:t=P:problem=kreska pseudotaktowa:mod=	!	!	!	!	!
.	.	.	1G	-ri-	-ri-	.	.	.	2cc\	-ley-	-lei-	1GG	-ſon	-son	2D/	e	e	1d	-ſon	-son	.	.	.
!	!	!	!	!	!	!	!	!	!	!	!	!	!	!	!LO:TX:t=P:problem=kreska pseudotaktowa:mod=	!	!	!	!	!	!	!	!
.	.	.	.	.	.	.	.	.	2b\	-ſon	-son	.	.	.	2d\	e-	e-	.	.	.	.	.	.
!	!	!	!	!	!	!	!	!	!	!	!	!	!	!	!	!	!	!LO:LB:g=original	!	!	!	!	!
=10-	=10-	=10-	=10-	=10-	=10-	=10-	=10-	=10-	=10-	=10-	=10-	=10-	=10-	=10-	=10-	=10-	=10-	=10-	=10-	=10-	=10-	=10-	=10-
!	!	!	!LO:MO:mod=*2\left	!	!	!	!	!	!	!	!	!	!	!	!	!	!	!	!	!	!	!	!
*	*	*	*2\right	*	*	*	*	*	*	*ij	*ij	*	*	*	*	*	*	*	*	*	*	*	*
!	!	!	!	!	!	!	!	!	!	!	!	!	!	!	!	!	!	!LO:TX:t=P:problem=kreska pseudotaktowa:mod=	!	!	!	!	!
.	.	.	2A\	-e	-e	1e	Ky-	Ky-	2.a\	Ky-	Ky-	00r	.	.	2c\	-le-	-le-	1r	.	.	.	.	.
!	!	!	!	!	!	!	!	!	!	!	!	!	!	!	!LO:TX:t=P:problem=kreska pseudotaktowa:mod=	!	!	!	!	!	!	!	!
.	.	.	2c\	e-	e-	.	.	.	.	.	.	.	.	.	2A/	.	.	.	.	.	.	.	.
.	.	.	.	.	.	.	.	.	8g/L	.	.	.	.	.	.	.	.	.	.	.	.	.	.
!	!	!	!	!	!	!	!	!	!LO:TX:t=P:problem=kreska pseudotaktowa:mod=	!	!	!	!	!	!	!	!	!	!	!	!	!	!
.	.	.	.	.	.	.	.	.	8f/J	.	.	.	.	.	.	.	.	.	.	.	.	.	.
!	!	!	!	!	!	!LO:TX:t=P:problem=kreska pseudotaktowa:mod=	!	!	!	!	!	!	!	!	!	!	!	!	!	!	!	!	!
*	*	*	*	*	*	*	*	*	*	*	*	*	*	*	*lig	*	*	*	*	*	*	*	*
.	.	.	2c\	-ley-	-lei-	1g	-ri-	-ri-	2e/	.	.	.	.	.	1G	-y-	-i-	2r	.	.	00r	.	.
!	!	!	!LO:TX:t=P:problem=kreska pseudotaktowa:mod=	!	!	!	!	!	!	!	!	!	!	!	!	!	!	!	!	!	!	!	!
.	.	.	2B\	-ſon	-son	.	.	.	2d/	-ri-	-ri-	.	.	.	.	.	.	2d\	e-	e-	.	.	.
=11-	=11-	=11-	=11-	=11-	=11-	=11-	=11-	=11-	=11-	=11-	=11-	=11-	=11-	=11-	=11-	=11-	=11-	=11-	=11-	=11-	=11-	=11-	=11-
*	*	*	*	*ij	*ij	*2\right	*	*	*	*	*	*	*	*	*	*	*	*	*	*	*	*	*
!	!	!	!	!	!	!	!	!	!	!	!	!	!	!	!LO:TX:t=P:problem=kreska pseudotaktowa:mod=	!	!	!	!	!	!	!	!
0r	.	.	1A	Ky-	Ky-	2a\	-e	-e	4c/	-e	-e	.	.	.	1c	.	.	4f\	-le-	-le-	.	.	.
.	.	.	.	.	.	.	.	.	4cc\	e-	e-	.	.	.	.	.	.	8e\L	.	.	.	.	.
.	.	.	.	.	.	.	.	.	.	.	.	.	.	.	.	.	.	8d\J	.	.	.	.	.
.	.	.	.	.	.	2f\	e-	e-	2a\	-le-	-le-	.	.	.	.	.	.	2c/	.	.	.	.	.
*	*	*	*	*	*	*	*	*	*	*	*	*	*	*	*Xlig	*	*	*	*	*	*	*	*
!	!	!	!LO:TX:t=P:problem=kreska pseudotaktowa:mod=	!	!	!LO:TX:t=P:problem=kreska pseudotaktowa:mod=	!	!	!LO:TX:t=P:problem=kreska pseudotaktowa:mod=	!	!	!	!	!	!	!	!	!LO:TX:t=P:problem=kreska pseudotaktowa:mod=	!	!	!	!	!
.	.	.	0G	.	.	2f\	-ley-	-lei-	2b\	.	.	.	.	.	2d\	-ſon	-son	1g	-y-	-i-	.	.	.
.	.	.	.	.	.	2e\	-ſon	-son	2cc\	.	.	.	.	.	2.c\	e-	e-	.	.	.	.	.	.
=12-	=12-	=12-	=12-	=12-	=12-	=12-	=12-	=12-	=12-	=12-	=12-	=12-	=12-	=12-	=12-	=12-	=12-	=12-	=12-	=12-	=12-	=12-	=12-
*	*	*	*	*	*	*	*ij	*ij	*	*	*	*	*	*	*	*	*	*	*	*	*	*	*
!LO:TX:t=P:problem=kreska pseudotaktowa:mod=	!	!	!	!	!	!	!	!	!LO:TX:t=P:problem=kreska pseudotaktowa:mod=	!	!	!	!	!	!	!	!	!LO:TX:t=P:problem=kreska pseudotaktowa:mod=	!	!	!	!	!
1r	.	.	.	.	.	2.d\	Ky-	Ky-	1dd	.	.	00r	.	.	.	.	.	1g	-ſon	-son	.	.	.
*	*	*	*	*	*	*	*	*	*	*	*	*	*	*	*	*	*	*	*Xij	*Xij	*	*	*
.	.	.	.	.	.	.	.	.	.	.	.	.	.	.	8B\L	.	.	.	.	.	.	.	.
.	.	.	.	.	.	.	.	.	.	.	.	.	.	.	8A\J	.	.	.	.	.	.	.	.
!	!	!	!	!	!	!	!	!	!	!	!	!	!	!	!LO:TX:t=P:problem=kreska pseudotaktowa:mod=	!	!	!	!	!	!	!	!
.	.	.	.	.	.	.	.	.	.	.	.	.	.	.	2B\	.	.	.	.	.	.	.	.
!	!	!	!	!	!	!LO:TX:t=P:problem=kreska pseudotaktowa:mod=	!	!	!	!	!	!	!	!	!	!	!	!	!	!	!	!	!
.	.	.	.	.	.	4e\	.	.	.	.	.	.	.	.	.	.	.	.	.	.	.	.	.
1AA	Ky-	Ky-	1.A	-ri-	-ri-	2f\	-ri-	-ri-	4cc\	.	.	.	.	.	0c	-ley-	-lei-	00r	.	.	00r	.	.
.	.	.	.	.	.	.	.	.	4b\	.	.	.	.	.	.	.	.	.	.	.	.	.	.
.	.	.	.	.	.	4e\	.	.	4a\	.	.	.	.	.	.	.	.	.	.	.	.	.	.
.	.	.	.	.	.	4d\	.	.	8g/L	.	.	.	.	.	.	.	.	.	.	.	.	.	.
!	!	!	!	!	!	!	!	!	!LO:TX:t=P:problem=kreska pseudotaktowa:mod=	!	!	!	!	!	!	!	!	!	!	!	!	!	!
.	.	.	.	.	.	.	.	.	8f/J	.	.	.	.	.	.	.	.	.	.	.	.	.	.
=13-	=13-	=13-	=13-	=13-	=13-	=13-	=13-	=13-	=13-	=13-	=13-	=13-	=13-	=13-	=13-	=13-	=13-	=13-	=13-	=13-	=13-	=13-	=13-
!LO:TX:t=P:problem=kreska pseudotaktowa:mod=	!	!	!	!	!	!	!	!	!	!	!	!	!	!	!	!	!	!	!	!	!	!	!
1C	-ri-	-ri-	.	.	.	1e	-e	-e	4e/	.	.	.	.	.	.	.	.	.	.	.	.	.	.
.	.	.	.	.	.	.	.	.	4f/	.	.	.	.	.	.	.	.	.	.	.	.	.	.
!	!	!	!LO:TX:t=P:problem=kreska pseudotaktowa:mod=	!	!	!	!	!	!	!	!	!	!	!	!	!	!	!	!	!	!	!	!
.	.	.	2G/	.	.	.	.	.	4g/	.	.	.	.	.	.	.	.	.	.	.	.	.	.
.	.	.	.	.	.	.	.	.	4e/	.	.	.	.	.	.	.	.	.	.	.	.	.	.
!LO:MO:mod=*2\left	!	!	!	!	!	!	!	!	!	!	!	!	!	!	!	!	!	!	!	!	!	!	!
*2\right	*	*	*	*	*	*	*	*	*	*	*	*	*	*	*	*	*	*	*	*	*	*	*
!	!	!	!	!	!	!	!	!	!	!	!	!	!	!	!LO:TX:t=P:problem=kreska pseudotaktowa:mod=	!	!	!	!	!	!	!	!
2D\	-e	-e	2F/	-e	-e	2d\	e-	e-	2.f/	.	.	.	.	.	1A	-ſon	-son	.	.	.	.	.	.
2F\	e-	e-	2A/	e-	e-	4c/	.	.	.	.	.	.	.	.	.	.	.	.	.	.	.	.	.
!	!	!	!	!	!	!LO:TX:t=P:problem=kreska pseudotaktowa:mod=	!	!	!LO:TX:t=P:problem=kreska pseudotaktowa:mod=	!	!	!	!	!	!	!	!	!	!	!	!	!	!
.	.	.	.	.	.	4B/	.	.	4g/	.	.	.	.	.	.	.	.	.	.	.	.	.	.
!	!	!	!	!	!	!	!	!	!LO:LB:g=original	!	!	!	!	!	!	!	!	!	!	!	!	!	!
=14-	=14-	=14-	=14-	=14-	=14-	=14-	=14-	=14-	=14-	=14-	=14-	=14-	=14-	=14-	=14-	=14-	=14-	=14-	=14-	=14-	=14-	=14-	=14-
*	*	*	*	*	*	*lig	*	*	*	*	*	*	*	*	*	*	*	*	*	*	*	*	*
!	!	!	!	!	!	!	!	!	!	!	!	!LO:TX:t=P:problem=kreska pseudotaktowa:mod=	!	!	!	!	!	!	!	!	!	!	!
2F\	-ley-	-le-	2F/	-le-	-le-	1c	-ley-	-lei-	2a\	.	.	0r	.	.	0r	.	.	.	.	.	.	.	.
!LO:TX:t=P:problem=kreska pseudotaktowa:mod=	!	!	!LO:TX:t=P:problem=kreska pseudotaktowa:mod=	!	!	!	!	!	!LO:TX:t=P:problem=kreska pseudotaktowa:mod=	!	!	!	!	!	!	!	!	!	!	!	!	!	!
2E\	-ſon	.	2G/	.	.	.	.	.	2g/	.	.	.	.	.	.	.	.	.	.	.	.	.	.
!	!	!	!	!	!	!	!	!	!	!	!	!	!	!	!	!	!	!	!	!	!LO:TX:t=P:problem=kreska pseudotaktowa:mod=	!	!
1D	.	-i-	2A\	.	.	1d	.	.	1f	-y-	-i-	.	.	.	.	.	.	2r	.	.	1r	.	.
.	.	.	2B\	-y-	-i-	.	.	.	.	.	.	.	.	.	.	.	.	2d\	Ky-	Ky-	.	.	.
!	!	!	!	!	!	!	!	!	!	!	!	!	!	!	!	!	!	!LO:TX:t=P:problem=kreska pseudotaktowa:mod=	!	!	!	!	!
*	*	*	*	*	*	*Xlig	*	*	*	*	*	*	*	*	*	*	*	*	*	*	*	*	*
=15-	=15-	=15-	=15-	=15-	=15-	=15-	=15-	=15-	=15-	=15-	=15-	=15-	=15-	=15-	=15-	=15-	=15-	=15-	=15-	=15-	=15-	=15-	=15-
!LO:TX:t=P:problem=kreska pseudotaktowa:mod=	!	!	!LO:TX:t=P:problem=kreska pseudotaktowa:mod=	!	!	!LO:TX:t=P:problem=kreska pseudotaktowa:mod=	!	!	!LO:TX:t=P:problem=kreska pseudotaktowa:mod=	!	!	!	!	!	!	!	!	!	!	!	!	!	!
1C	.	-son	1c	-ſon	-son	1G	-ſon	-son	1e	-ſon	-son	2r	.	.	4r	.	.	2g\	-ri-	-ri-	2r	.	.
.	.	.	.	.	.	.	.	.	.	.	.	.	.	.	4G/	Ky-	Ky-	.	.	.	.	.	.
!	!	!	!	!	!	!	!	!	!	!	!	!	!	!	!LO:TX:t=P:problem=kreska pseudotaktowa:mod=	!	!	!	!	!	!LO:TX:t=P:problem=kreska pseudotaktowa:mod=	!	!
.	.	.	.	.	.	.	.	.	.	.	.	2C/	Ky-	Ky-	2c\	.	.	2e\	-e	-e	2g/	Ky-	Ky-
!	!	!	!	!	!	!	!	!	!	!	!	!	!	!	!	!	!	!	!	!	!LO:LB:g=original	!	!
00r	.	.	0r	.	.	0r	.	.	00r	.	.	2G\	-ri-	-ri-	2B\	-ri-	-ri-	2d\	e-	e-	2g\	-rie	-rie
!	!	!	!	!	!	!	!	!	!	!	!	!LO:TX:t=P:problem=kreska pseudotaktowa:mod=	!	!	!	!	!	!LO:TX:t=P:problem=kreska pseudotaktowa:mod=	!	!	!LO:TX:t=P:problem=kreska pseudotaktowa:mod=	!	!
.	.	.	.	.	.	.	.	.	.	.	.	2E\	-e	-e	1c\	-e	-e	2e\	.	.	2g\	e-	e-
=16-	=16-	=16-	=16-	=16-	=16-	=16-	=16-	=16-	=16-	=16-	=16-	=16-	=16-	=16-	=16-	=16-	=16-	=16-	=16-	=16-	=16-	=16-	=16-
.	.	.	.	.	.	.	.	.	.	.	.	2F\	e-	e-	.	.	.	1d	-ley-	-le-	2a\	-le-	-le-
.	.	.	.	.	.	.	.	.	.	.	.	2G\	.	.	2.B\	e-	e-	.	.	.	4g/	.	.
!	!	!	!	!	!	!	!	!	!	!	!	!	!	!	!	!	!	!	!	!	!LO:TX:t=P:problem=kreska pseudotaktowa:mod=	!	!
.	.	.	.	.	.	.	.	.	.	.	.	.	.	.	.	.	.	.	.	.	4f/	.	.
!	!	!	!LO:TX:t=P:problem=kreska pseudotaktowa:mod=	!	!	!LO:TX:t=P:problem=kreska pseudotaktowa:mod=	!	!	!	!	!	!LO:TX:t=P:problem=kreska pseudotaktowa:mod=	!	!	!	!	!	!LO:TX:t=P:problem=kreska pseudotaktowa:mod=	!	!	!	!	!
.	.	.	1r	.	.	1r	.	.	.	.	.	1A	-le-	-le-	.	.	.	1c	.	-i-	0e	-y-	-i-
.	.	.	.	.	.	.	.	.	.	.	.	.	.	.	4A\	.	.	.	.	.	.	.	.
.	.	.	.	.	.	.	.	.	.	.	.	.	.	.	1A\	-le-	-le-	.	.	.	.	.	.
=17-	=17-	=17-	=17-	=17-	=17-	=17-	=17-	=17-	=17-	=17-	=17-	=17-	=17-	=17-	=17-	=17-	=17-	=17-	=17-	=17-	=17-	=17-	=17-
.	.	.	2r	.	.	2B/	Ky-	Ky-	.	.	.	1E	-y-	-i-	.	.	.	1B	.	.	.	.	.
!	!	!	!	!	!	!	!	!	!	!	!	!	!	!	!LO:TX:t=P:problem=kreska pseudotaktowa:mod=	!	!	!	!	!	!	!	!
.	.	.	2E/	Ky-	Ky-	2.e\	-rie	-rie	.	.	.	.	.	.	2G#X/	-y-	-i-	.	.	.	.	.	.
!	!	!	!LO:TX:t=P:problem=kreska pseudotaktowa:mod=	!	!	!	!	!	!	!	!	!LO:TX:t=P:problem=kreska pseudotaktowa:mod=	!	!	!	!	!	!LO:TX:t=P:problem=kreska pseudotaktowa:mod=	!	!	!LO:TX:t=P:problem=kreska pseudotaktowa:mod=	!	!
2r	.	.	1A	-ri-	-ri-	.	.	.	4r	.	.	1AA	-ſon	-son	1A	-ſon	-son	1c	-ſon	-son	1e	-ſon	-son
.	.	.	.	.	.	4A/	e-	e-	4e/	Ky-	Ky-	.	.	.	.	.	.	.	.	.	.	.	.
*	*ij	*ij	*	*	*	*	*	*	*	*	*	*	*	*	*	*	*	*	*	*	*	*	*
!LO:TX:t=P:problem=kreska pseudotaktowa:mod=	!	!	!	!	!	!	!	!	!LO:TX:t=P:problem=kreska pseudotaktowa:mod=	!	!	!	!	!	!	!	!	!	!	!	!	!	!
2AA/	Ky-	Ky-	.	.	.	4c\	.	.	2a\	.	.	.	.	.	.	.	.	.	.	.	.	.	.
!	!	!	!	!	!	!LO:TX:t=P:problem=kreska pseudotaktowa:mod=	!	!	!	!	!	!	!	!	!	!	!	!	!	!	!	!	!
.	.	.	.	.	.	4d\	.	.	.	.	.	.	.	.	.	.	.	.	.	.	.	.	.
=18-	=18-	=18-	=18-	=18-	=18-	=18-	=18-	=18-	=18-	=18-	=18-	=18-	=18-	=18-	=18-	=18-	=18-	=18-	=18-	=18-	=18-	=18-	=18-
2E\	-ri-	-ri-	2B\	-e	-e	2e\	.	.	2g#X\	-ri-	-ri-	0r	.	.	0r	.	.	0r	.	.	1r	.	.
!	!	!	!	!	!	!LO:LB:g=original	!	!	!	!	!	!	!	!	!	!	!	!	!	!	!	!	!
2AA/	-e	-e	2c\	e-	e-	1f	-le-	-le-	2a\	-e	-e	.	.	.	.	.	.	.	.	.	.	.	.
2BB/	e-	e-	2d\	-le-	-le-	.	.	.	1gny	e-	e-	.	.	.	.	.	.	.	.	.	2r	.	.
!LO:TX:t=P:problem=kreska pseudotaktowa:mod=	!	!	!	!	!	!	!	!	!	!	!	!	!	!	!	!	!	!	!	!	!LO:TX:t=P:problem=kreska pseudotaktowa:mod=	!	!
2C/	.	.	4c\	.	.	1e\	.	.	.	.	.	.	.	.	.	.	.	.	.	.	2e/	Ky-	Ky-
!	!	!	!LO:TX:t=P:problem=kreska pseudotaktowa:mod=	!	!	!	!	!	!	!	!	!	!	!	!	!	!	!	!	!	!	!	!
.	.	.	4B\	.	.	.	.	.	.	.	.	.	.	.	.	.	.	.	.	.	.	.	.
=19-	=19-	=19-	=19-	=19-	=19-	=19-	=19-	=19-	=19-	=19-	=19-	=19-	=19-	=19-	=19-	=19-	=19-	=19-	=19-	=19-	=19-	=19-	=19-
!	!	!	!	!	!	!	!	!	!LO:TX:t=P:problem=kreska pseudotaktowa:mod=	!	!	!	!	!	!LO:TX:t=P:problem=kreska pseudotaktowa:mod=	!	!	!LO:TX:t=P:problem=kreska pseudotaktowa:mod=	!	!	!	!	!
1D	-le-	-le-	0A	-y-	-i-	.	.	.	1f	-le-	-le-	2r	.	.	1r	.	.	1r	.	.	1.a	.	.
!	!	!	!	!	!	!	!	!	!	!	!	!LO:TX:t=P:problem=kreska pseudotaktowa:mod=	!	!	!	!	!	!	!	!	!	!	!
.	.	.	.	.	.	1d	.	.	.	.	.	2D\	Ky-	Ky-	.	.	.	.	.	.	.	.	.
*	*	*	*	*	*	*	*	*	*	*	*	*	*	*	*	*	*	*	*ij	*ij	*	*	*
!	!	!	!	!	!	!	!	!	!	!	!	!LO:LB:g=original	!	!	!	!	!	!	!	!	!	!	!
1AA	-y-	-i-	.	.	.	.	.	.	1e	-y-	-i-	1A	.	.	2r	.	.	2e\	Ky-	Ky-	.	.	.
!	!	!	!	!	!	!LO:TX:t=P:problem=kreska pseudotaktowa:mod=	!	!	!	!	!	!	!	!	!	!	!	!LO:TX:t=P:problem=przekreślona synkopowana wartość:mod=	!	!	!LO:TX:t=P:problem=kreska pseudotaktowa:mod=	!	!
.	.	.	.	.	.	2c#X/	-y-	-i-	.	.	.	.	.	.	2.A/	Ky-	Ky-	1a\	.	.	2e/	-ri-	-ri-
=20-	=20-	=20-	=20-	=20-	=20-	=20-	=20-	=20-	=20-	=20-	=20-	=20-	=20-	=20-	=20-	=20-	=20-	=20-	=20-	=20-	=20-	=20-	=20-
!LO:TX:t=P:problem=kreska pseudotaktowa:mod=	!	!	!LO:TX:t=P:problem=kreska pseudotaktowa:mod=	!	!	!	!	!	!LO:TX:t=P:problem=kreska pseudotaktowa:mod=	!	!	!LO:TX:t=P:problem=kreska pseudotaktowa:mod=	!	!	!	!	!	!	!	!	!	!	!
1D	-ſon	-son	1A	-ſon	-son	1d	-ſon	-son	1f#X	-ſon	-son	1D	-ri-	-ri-	.	.	.	.	.	.	1f#X	-e	-e
.	.	.	.	.	.	.	.	.	.	.	.	.	.	.	2d\	-ri-	-ri-	.	.	.	.	.	.
!	!	!	!	!	!	!	!	!	!	!	!	!	!	!	!	!	!	!LO:TX:t=P:problem=przekreślona synkopowana wartość:mod=	!	!	!	!	!
.	.	.	.	.	.	.	.	.	.	.	.	.	.	.	.	.	.	1d	-ri-	-ri-	.	.	.
!	!	!	!	!	!	!	!	!	!	!	!	!	!	!	!LO:TX:t=P:problem=kreska pseudotaktowa:mod=	!	!	!	!	!	!	!	!
.	.	.	.	.	.	.	.	.	.	.	.	.	.	.	4A/	.	.	.	.	.	.	.	.
!	!	!	!LO:LB:g=original	!	!	!	!	!	!	!	!	!	!	!	!	!	!	!	!	!	!LO:TX:t=P:problem=kreska pseudotaktowa:mod=	!	!
0r	.	.	0r	.	.	0r	.	.	1r	.	.	2G\	-e	-e	1B	-e	-e	.	.	.	1g	e-	e-
!	!	!	!	!	!	!	!	!	!	!	!	!LO:TX:t=P:problem=kreska pseudotaktowa:mod=	!	!	!	!	!	!LO:TX:t=P:problem=przekreślona synkopowana wartość:mod=	!	!	!	!	!
.	.	.	.	.	.	.	.	.	.	.	.	2GG/	e-	e-	.	.	.	1e\	-e	-e	.	.	.
=21-	=21-	=21-	=21-	=21-	=21-	=21-	=21-	=21-	=21-	=21-	=21-	=21-	=21-	=21-	=21-	=21-	=21-	=21-	=21-	=21-	=21-	=21-	=21-
.	.	.	.	.	.	.	.	.	2r	.	.	2AA/	-le-	-le-	2c\	e-	e-	.	.	.	1fny	-le-	-le-
!	!	!	!	!	!	!	!	!	!LO:TX:t=P:problem=kreska pseudotaktowa:mod=	!	!	!LO:TX:t=P:problem=kreska pseudotaktowa:mod=	!	!	!	!	!	!	!	!	!	!	!
.	.	.	.	.	.	.	.	.	2d/	Ky-	Ky-	2BB/	.	.	4B\	.	.	2.d\	e-	e-	.	.	.
!	!	!	!	!	!	!	!	!	!	!	!	!	!	!	!LO:TX:t=P:problem=kreska pseudotaktowa:mod=	!	!	!	!	!	!	!	!
.	.	.	.	.	.	.	.	.	.	.	.	.	.	.	4A\	.	.	.	.	.	.	.	.
!	!	!	!LO:TX:t=P:problem=kreska pseudotaktowa:mod=	!	!	!LO:TX:t=P:problem=kreska pseudotaktowa:mod=	!	!	!	!	!	!	!	!	!LO:LB:g=original	!	!	!	!	!	!LO:TX:t=P:problem=kreska pseudotaktowa:mod=	!	!
2r	.	.	1r	.	.	1r	.	.	1.g	.	.	1C	.	.	0Gny	-ley-	-lei-	.	.	.	1e	.	.
.	.	.	.	.	.	.	.	.	.	.	.	.	.	.	.	.	.	4c\	.	.	.	.	.
!LO:TX:t=P:problem=kreska pseudotaktowa:mod=	!	!	!	!	!	!	!	!	!	!	!	!	!	!	!	!	!	!	!	!	!	!	!
2C/	Ky-	Ky-	.	.	.	.	.	.	.	.	.	.	.	.	.	.	.	1c\	-le-	-le-	.	.	.
=22-	=22-	=22-	=22-	=22-	=22-	=22-	=22-	=22-	=22-	=22-	=22-	=22-	=22-	=22-	=22-	=22-	=22-	=22-	=22-	=22-	=22-	=22-	=22-
1G	.	.	2r	.	.	2d\	Ky-	Ky-	.	.	.	1GG	-y-	-i-	.	.	.	.	.	.	1d	-y-	-i-
!	!	!	!	!	!	!	!	!	!LO:TX:t=P:problem=kreska pseudotaktowa:mod=	!	!	!	!	!	!	!	!	!LO:TX:t=P:problem=kreska pseudotaktowa:mod=	!	!	!	!	!
.	.	.	2.G/	Ky-	Ky-	1g	.	.	2d/	.	.	.	.	.	.	.	.	2B/	-y-	-i-	.	.	.
!LO:TX:t=P:problem=kreska pseudotaktowa:mod=	!	!	!	!	!	!	!	!	!	!	!	!LO:TX:t=P:problem=kreska pseudotaktowa:mod=	!	!	!LO:TX:t=P:problem=kreska pseudotaktowa:mod=	!	!	!LO:TX:t=P:problem=kreska pseudotaktowa:mod=	!	!	!LO:TX:t=P:problem=kreska pseudotaktowa:mod=	!	!
1C	-ri-	-ri-	.	.	.	.	.	.	2e/	-ri-	-ri-	1C	-ſon	-son	1G	-ſon	-son	1c	-ſon	-son	1e	-ſon	-son
.	.	.	2c\	-ri-	-ri-	.	.	.	.	.	.	.	.	.	.	.	.	.	.	.	.	.	.
!	!	!	!	!	!	!LO:TX:t=P:problem=kreska pseudotaktowa:mod=	!	!	!	!	!	!	!	!	!	!	!	!	!	!	!	!	!
.	.	.	.	.	.	2e\	-ri-	-ri-	2g/	-e	-e	.	.	.	.	.	.	.	.	.	.	.	.
!	!	!	!LO:TX:t=P:problem=kreska pseudotaktowa:mod=	!	!	!	!	!	!	!	!	!	!	!	!	!	!	!	!	!	!	!	!
.	.	.	4G/	.	.	.	.	.	.	.	.	.	.	.	.	.	.	.	.	.	.	.	.
=23-	=23-	=23-	=23-	=23-	=23-	=23-	=23-	=23-	=23-	=23-	=23-	=23-	=23-	=23-	=23-	=23-	=23-	=23-	=23-	=23-	=23-	=23-	=23-
2G\	-e	-e	2B\	.	.	2d\	-e	-e	2.g/	e-	e-	0r	.	.	1r	.	.	0r	.	.	0r	.	.
2C/	e-	e-	2c\	-e	-e	2e\	.	.	.	.	.	.	.	.	.	.	.	.	.	.	.	.	.
!	!	!	!	!	!	!	!	!	!LO:TX:t=P:problem=kreska pseudotaktowa:mod=	!	!	!	!	!	!	!	!	!	!	!	!	!	!
.	.	.	.	.	.	.	.	.	4e/	.	.	.	.	.	.	.	.	.	.	.	.	.	.
!LO:LB:g=original	!	!	!	!	!	!	!	!	!	!	!	!	!	!	!	!	!	!	!	!	!	!	!
2D\	.	.	1B-X	e-	e-	2d\	e-	e-	2fny/	.	.	.	.	.	2r	.	.	.	.	.	.	.	.
!LO:TX:t=P:problem=kreska pseudotaktowa:mod=	!	!	!	!	!	!	!	!	!	!	!	!	!	!	!LO:TX:t=P:problem=kreska pseudotaktowa:mod=	!	!	!	!	!	!	!	!
2E\	.	.	.	.	.	2cny/	.	.	2.g/	.	.	.	.	.	2G/	Ky-	Ky-	.	.	.	.	.	.
=24-	=24-	=24-	=24-	=24-	=24-	=24-	=24-	=24-	=24-	=24-	=24-	=24-	=24-	=24-	=24-	=24-	=24-	=24-	=24-	=24-	=24-	=24-	=24-
!	!	!	!LO:TX:t=P:problem=kreska pseudotaktowa:mod=	!	!	!	!	!	!	!	!	!	!	!	!	!	!	!LO:TX:t=P:problem=kreska pseudotaktowa:mod=	!	!	!	!	!
1F	-le-	-le-	1A	-le-	-le-	0c	-ley-	-lei-	.	.	.	2r	.	.	2c\	.	.	1r	.	.	4r	.	.
.	.	.	.	.	.	.	.	.	4f/	.	.	.	.	.	.	.	.	.	.	.	4a\	Ky-	Ky-
!	!	!	!	!	!	!	!	!	!	!	!	!LO:TX:t=P:problem=kreska pseudotaktowa:mod=	!	!	!	!	!	!	!	!	!	!	!
.	.	.	.	.	.	.	.	.	1f	-le-	-le-	2FF/	Ky-	Ky-	2F/	-ri-	-ri-	.	.	.	2.cc\	.	.
!	!	!	!	!	!	!	!	!	!	!	!	!	!	!	!LO:TX:t=P:problem=kreska pseudotaktowa:mod=	!	!	!	!	!	!	!	!
1C	-y-	-i-	1G	-y-	-i-	.	.	.	.	.	.	1C	-rie	-rie	1G	-e	-e	2r	.	.	.	.	.
.	.	.	.	.	.	.	.	.	.	.	.	.	.	.	.	.	.	.	.	.	8b\L	.	.
.	.	.	.	.	.	.	.	.	.	.	.	.	.	.	.	.	.	.	.	.	8a\J	.	.
!	!	!	!	!	!	!	!	!	!	!	!	!	!	!	!	!	!	!	!	!	!LO:TX:t=P:problem=kreska pseudotaktowa:mod=	!	!
.	.	.	.	.	.	.	.	.	2e/	-y-	-i-	.	.	.	.	.	.	1c\	Ky-	Ky-	2g\	.	.
=25-	=25-	=25-	=25-	=25-	=25-	=25-	=25-	=25-	=25-	=25-	=25-	=25-	=25-	=25-	=25-	=25-	=25-	=25-	=25-	=25-	=25-	=25-	=25-
!LO:TX:t=P:problem=kreska pseudotaktowa:mod=	!	!	!LO:TX:t=P:problem=kreska pseudotaktowa:mod=	!	!	!LO:TX:t=P:problem=kreska pseudotaktowa:mod=	!	!	!LO:TX:t=P:problem=kreska pseudotaktowa:mod=	!	!	!	!	!	!	!	!	!	!	!	!LO:TX:t=P:problem=kreska pseudotaktowa:mod=	!	!
1FF	-ſon	-son	1F	-ſon	-son	1c	-ſon	-son	1f	-ſon	-son	2r	.	.	4r	.	.	.	.	.	0a	-ri-	-ri-
.	.	.	.	.	.	.	.	.	.	.	.	.	.	.	4F/	Ky-	Ky-	.	.	.	.	.	.
!	!	!	!	!	!	!	!	!	!	!	!	!LO:TX:t=P:problem=kreska pseudotaktowa:mod=	!	!	!	!	!	!	!	!	!	!	!
.	.	.	.	.	.	.	.	.	.	.	.	2FF/	e-	e-	1c	.	.	1f	.	.	.	.	.
!	!	!	!	!	!	!	!	!	!LO:LB:g=original	!	!	!	!	!	!	!	!	!	!	!	!	!	!
0r	.	.	0r	.	.	0r	.	.	0r	.	.	2F\	-le-	-le-	.	.	.	.	.	.	.	.	.
!	!	!	!	!	!	!	!	!	!	!	!	!	!	!	!LO:TX:t=P:problem=kreska pseudotaktowa:mod=	!	!	!LO:TX:t=P:problem=kreska pseudotaktowa:mod=	!	!	!	!	!
.	.	.	.	.	.	.	.	.	.	.	.	2D\	.	.	2d\	-ri-	-ri-	2f\	-ri-	-ri-	.	.	.
!	!	!	!	!	!	!	!	!	!	!	!	!	!	!	!	!	!	!LO:LB:g=original	!	!	!	!	!
=26-	=26-	=26-	=26-	=26-	=26-	=26-	=26-	=26-	=26-	=26-	=26-	=26-	=26-	=26-	=26-	=26-	=26-	=26-	=26-	=26-	=26-	=26-	=26-
.	.	.	.	.	.	.	.	.	.	.	.	2E\	.	.	1c	-e	-e	2e\	-e	-e	2g\	-e	-e
!	!	!	!	!	!	!	!	!	!	!	!	!LO:TX:t=P:problem=kreska pseudotaktowa:mod=	!	!	!	!	!	!	!	!	!LO:LB:g=original	!	!
.	.	.	.	.	.	.	.	.	.	.	.	2F\	.	.	.	.	.	2A/	e-	e-	2.a\	e-	e-
!	!	!	!	!	!	!	!	!	!LO:TX:t=P:problem=kreska pseudotaktowa:mod=	!	!	!	!	!	!LO:TX:t=P:problem=kreska pseudotaktowa:mod=	!	!	!LO:TX:t=P:problem=kreska pseudotaktowa:mod=	!	!	!	!	!
1GG	Ky-	Ky-	2G/	Ky-	Ky-	1r	.	.	1r	.	.	1G	.	.	1B	e-	e-	0.d	-ley-	-lei-	.	.	.
.	.	.	.	.	.	.	.	.	.	.	.	.	.	.	.	.	.	.	.	.	4g/	.	.
.	.	.	2.d\	-ri-	-ri-	.	.	.	.	.	.	.	.	.	.	.	.	.	.	.	1g/	-le-	-le-
=27-	=27-	=27-	=27-	=27-	=27-	=27-	=27-	=27-	=27-	=27-	=27-	=27-	=27-	=27-	=27-	=27-	=27-	=27-	=27-	=27-	=27-	=27-	=27-
!LO:TX:t=P:problem=kreska pseudotaktowa:mod=	!	!	!	!	!	!	!	!	!	!	!	!LO:TX:t=P:problem=kreska pseudotaktowa:mod=	!	!	!	!	!	!	!	!	!	!	!
1D	rie	rie	.	.	.	2r	.	.	2a\	Ky-	Ky-	1D	-y-	-i-	1A	-le-	-le-	.	.	.	.	.	.
.	.	.	8c\L	.	.	.	.	.	.	.	.	.	.	.	.	.	.	.	.	.	.	.	.
.	.	.	8Bny\J	.	.	.	.	.	.	.	.	.	.	.	.	.	.	.	.	.	.	.	.
!	!	!	!LO:TX:t=P:problem=kreska pseudotaktowa:mod=	!	!	!	!	!	!	!	!	!	!	!	!	!	!	!	!	!	!LO:TX:t=P:problem=kreska pseudotaktowa:mod=	!	!
.	.	.	2A/	.	.	1d	Ky-	Ky-	2.dd\	-ri-	-ri-	.	.	.	.	.	.	.	.	.	2f#X/	-y-	-i-
!	!	!	!	!	!	!	!	!	!	!	!	!LO:TX:t=P:problem=kreska pseudotaktowa:mod=	!	!	!	!	!	!	!	!	!LO:TX:t=P:problem=kreska pseudotaktowa:mod=	!	!
2r	.	.	0G	-e	-e	.	.	.	.	.	.	1GG	-ſon	-son	2G/	.	.	.	.	.	1g	-ſon	-son
.	.	.	.	.	.	.	.	.	4cc\	.	.	.	.	.	.	.	.	.	.	.	.	.	.
!	!	!	!	!	!	!	!	!	!	!	!	!	!	!	!LO:TX:t=P:problem=kreska pseudotaktowa:mod=	!	!	!	!	!	!	!	!
2GG/	e-	e-	.	.	.	4g\	.	.	4b\	.	.	.	.	.	2D/	.	.	.	.	.	.	.	.
!	!	!	!	!	!	!LO:TX:t=P:problem=kreska pseudotaktowa:mod=	!	!	!LO:TX:t=P:problem=kreska pseudotaktowa:mod=	!	!	!	!	!	!	!	!	!	!	!	!	!	!
.	.	.	.	.	.	4f\	.	.	4a\	.	.	.	.	.	.	.	.	.	.	.	.	.	.
=28-	=28-	=28-	=28-	=28-	=28-	=28-	=28-	=28-	=28-	=28-	=28-	=28-	=28-	=28-	=28-	=28-	=28-	=28-	=28-	=28-	=28-	=28-	=28-
!LO:TX:t=P:problem=kreska pseudotaktowa:mod=	!	!	!	!	!	!	!	!	!	!	!	!	!	!	!	!	!	!	!	!	!	!	!
1C	-le-	-le-	.	.	.	4e\	.	.	1g	-e	-e	2r	.	.	1E	-y-	-i-	2c,</	-ſon	-son	4r	.	.
.	.	.	.	.	.	4d\	.	.	.	.	.	.	.	.	.	.	.	.	.	.	4g/	Ky-	Ky-
.	.	.	.	.	.	2e\	.	.	.	.	.	2C/	Ky-	Ky-	.	.	.	1c	Ky-	Ky-	2.cc\	.	.
!	!	!	!	!	!	!	!	!	!	!	!	!LO:TX:t=P:problem=kreska pseudotaktowa:mod=	!	!	!LO:TX:t=P:problem=kreska pseudotaktowa:mod=	!	!	!	!	!	!	!	!
1FF	-y-	-i-	1F	e-	e-	2f\	-ri-	-ri-	4a\	e-	e-	1F	-ri-	-ri-	1A	-ſon	-son	.	.	.	.	.	.
.	.	.	.	.	.	.	.	.	4b\	.	.	.	.	.	.	.	.	.	.	.	4b\	.	.
!	!	!	!	!	!	!	!	!	!	!	!	!	!	!	!	!	!	!LO:TX:t=P:problem=kreska pseudotaktowa:mod=	!	!	!LO:TX:t=P:problem=kreska pseudotaktowa:mod=	!	!
.	.	.	.	.	.	2.c\	e	e	4cc\	.	.	.	.	.	.	.	.	2f\	.	.	2a\	-ri-	-ri-
!	!	!	!	!	!	!	!	!	!LO:TX:t=P:problem=kreska pseudotaktowa:mod=	!	!	!	!	!	!	!	!	!	!	!	!	!	!
.	.	.	.	.	.	.	.	.	4dd\	.	.	.	.	.	.	.	.	.	.	.	.	.	.
=29-	=29-	=29-	=29-	=29-	=29-	=29-	=29-	=29-	=29-	=29-	=29-	=29-	=29-	=29-	=29-	=29-	=29-	=29-	=29-	=29-	=29-	=29-	=29-
*	*	*	*	*	*	*	*	*	*	*	*	*lig	*	*	*	*	*	*	*	*	*	*	*
!LO:TX:t=P:problem=kreska pseudotaktowa:mod=	!	!	!LO:TX:t=P:problem=kreska pseudotaktowa:mod=	!	!	!	!	!	!	!	!	!	!	!	!	!	!	!	!	!	!	!	!
1C	-ſon	-son	0G	-ley-	-lei-	.	.	.	1ee	-le-	-le-	1C	-e	-e	2r	.	.	2e\	-ri-	-ri-	2g\	-e	-e
.	.	.	.	.	.	4d\	.	.	.	.	.	.	.	.	.	.	.	.	.	.	.	.	.
.	.	.	.	.	.	4e\	.	.	.	.	.	.	.	.	4G/	Ky-	Ky-	2.g\	e	e	2cc\	e-	e-
!	!	!	!	!	!	!LO:TX:t=P:problem=kreska pseudotaktowa:mod=	!	!	!	!	!	!	!	!	!LO:TX:t=P:problem=kreska pseudotaktowa:mod=	!	!	!	!	!	!	!	!
.	.	.	.	.	.	4c\	.	.	.	.	.	.	.	.	4A/	.	.	.	.	.	.	.	.
!	!	!	!	!	!	!	!	!	!	!	!	!	!	!	!	!	!	!	!	!	!LO:TX:t=P:problem=kreska pseudotaktowa:mod=	!	!
2r	.	.	.	.	.	2d\	.	.	0dd	-y-	-i-	1G	.	.	4B\	.	.	.	.	.	1b	-ley-	-lei-
.	.	.	.	.	.	.	.	.	.	.	.	.	.	.	4c\	.	.	8f\L	.	.	.	.	.
.	.	.	.	.	.	.	.	.	.	.	.	.	.	.	.	.	.	8e\J	.	.	.	.	.
2GG/	Ky-	Ky-	.	.	.	2g\	e-	e-	.	.	.	.	.	.	1d\	.	.	4d\	.	.	.	.	.
.	.	.	.	.	.	.	.	.	.	.	.	.	.	.	.	.	.	4e\	.	.	.	.	.
!	!	!	!	!	!	!	!	!	!	!	!	!	!	!	!	!	!	!LO:TX:t=P:problem=kreska pseudotaktowa:mod=	!	!	!	!	!
*	*	*	*	*	*	*	*	*	*	*	*	*Xlig	*	*	*	*	*	*	*	*	*	*	*
=30-	=30-	=30-	=30-	=30-	=30-	=30-	=30-	=30-	=30-	=30-	=30-	=30-	=30-	=30-	=30-	=30-	=30-	=30-	=30-	=30-	=30-	=30-	=30-
!LO:TX:t=P:problem=kreska pseudotaktowa:mod=	!	!	!LO:TX:t=P:problem=kreska pseudotaktowa:mod=	!	!	!	!	!	!	!	!	!	!	!	!	!	!	!	!	!	!LO:TX:t=P:problem=kreska pseudotaktowa:mod=	!	!
1D	.	.	0A	-ſon	-ſon	1f	-le-	-le-	.	.	.	2r	.	.	.	.	.	4f\	.	.	1a	-ſon	-son
.	.	.	.	.	.	.	.	.	.	.	.	.	.	.	.	.	.	4d\	.	.	.	.	.
!	!	!	!	!	!	!	!	!	!	!	!	!LO:TX:t=P:problem=kreska pseudotaktowa:mod=	!	!	!LO:TX:t=P:problem=kreska pseudotaktowa:mod=	!	!	!	!	!	!	!	!
.	.	.	.	.	.	.	.	.	.	.	.	2D/	Ky-	Ky-	2A/	-ri-	-ri-	2.a\	.	.	.	.	.
!	!	!	!	!	!	!LO:TX:t=P:problem=1a poprawione na 2e:mod=	!	!	!LO:TX:t=P:problem=kreska pseudotaktowa:mod=	!	!	!	!	!	!	!	!	!	!	!	!	!	!
1AA	-ri-	-ri-	.	.	.	2e\	.	.	1cc	-ſon	-son	2.A\	-ri-	-ri-	2.c\	.	.	.	.	.	4r	.	.
.	.	.	.	.	.	.	.	.	.	.	.	.	.	.	.	.	.	8g\L	.	.	4a\	Ky-	Ky-
.	.	.	.	.	.	.	.	.	.	.	.	.	.	.	.	.	.	8f\J	.	.	.	.	.
!	!	!	!	!	!	!	!	!	!	!	!	!	!	!	!	!	!	!LO:TX:t=P:problem=kreska pseudotaktowa:mod=	!	!	!LO:TX:t=P::problem=kreska pseudotaktowa:między nutą a kropką:mod=	!	!
.	.	.	.	.	.	1a\	.	.	.	.	.	.	.	.	.	.	.	2e\	.	.	2.ee\	.	.
.	.	.	.	.	.	.	.	.	.	.	.	8G\L	.	.	8B\L	.	.	.	.	.	.	.	.
!	!	!	!	!	!	!	!	!	!	!	!	!LO:TX:t=P:problem=kreska pseudotaktowa:mod=	!	!	!LO:TX:t=P:problem=kreska pseudotaktowa:mod=	!	!	!	!	!	!	!	!
.	.	.	.	.	.	.	.	.	.	.	.	8F\J	.	.	8A\J	.	.	.	.	.	.	.	.
!	!	!	!	!	!	!	!	!	!	!	!	!LO:LB:g=original	!	!	!	!	!	!	!	!	!	!	!
=31-	=31-	=31-	=31-	=31-	=31-	=31-	=31-	=31-	=31-	=31-	=31-	=31-	=31-	=31-	=31-	=31-	=31-	=31-	=31-	=31-	=31-	=31-	=31-
2.E\	-e	-e	4r	.	.	.	.	.	4r	.	.	1.E	-e	-e	1B	e	e	1e	e-	e-	.	.	.
.	.	.	4E/	Ky-	Ky-	.	.	.	4b\	Ky-	Ky-	.	.	.	.	.	.	.	.	.	8dd\L	.	.
.	.	.	.	.	.	.	.	.	.	.	.	.	.	.	.	.	.	.	.	.	8cc\J	.	.
!	!	!	!LO:TX:t=P:problem=kreska pseudotaktowa:mod=	!	!	!	!	!	!	!	!	!	!	!	!	!	!	!	!	!	!LO:TX:t=P:problem=kreska pseudotaktowa:mod=	!	!
.	.	.	2G/	-ri-	-ri-	1g	-y-	-i-	2.ee\	-ri-	-ri-	.	.	.	.	.	.	.	.	.	2b\	.	.
!LO:TX:t=P:problem=kreska pseudotaktowa:mod=	!	!	!	!	!	!	!	!	!	!	!	!	!	!	!	!	!	!	!	!	!	!	!
4D/	.	.	.	.	.	.	.	.	.	.	.	.	.	.	.	.	.	.	.	.	.	.	.
*	*	*	*	*	*	*	*	*	*	*	*	*	*	*	*lig	*	*	*	*	*	*	*	*
!	!	!	!	!	!	!	!	!	!	!	!	!	!	!	!	!	!	!LO:TX:t=P:problem=kreska pseudotaktowa:mod=	!	!	!	!	!
4C/	.	.	2E/	-e	-e	.	.	.	.	.	.	.	.	.	1e	-e-	-e-	1c	-le-	-le-	2cc\	-ri-	-ri-
4BB/	.	.	.	.	.	.	.	.	4dd\	.	.	.	.	.	.	.	.	.	.	.	.	.	.
!	!	!	!	!	!	!LO:LB:g=original	!	!	!	!	!	!	!	!	!	!	!	!	!	!	!	!	!
!	!	!	!	!	!	!LO:TX:t=P:problem=kreska pseudotaktowa:mod=	!	!	!	!	!	!	!	!	!	!	!	!	!	!	!	!	!
1AA/	.	.	4r	.	.	2a\	-ſon	-son	1cc\	-e	-e	2A\	e-	e-	.	.	.	.	.	.	1ee\	-e	-e
!	!	!	!LO:TX:t=P:problem=kreska pseudotaktowa:mod=	!	!	!	!	!	!	!	!	!	!	!	!	!	!	!	!	!	!	!	!
.	.	.	4A\	e-	e-	.	.	.	.	.	.	.	.	.	.	.	.	.	.	.	.	.	.
=32-	=32-	=32-	=32-	=32-	=32-	=32-	=32-	=32-	=32-	=32-	=32-	=32-	=32-	=32-	=32-	=32-	=32-	=32-	=32-	=32-	=32-	=32-	=32-
.	.	.	4.c\	-le-	-le-	2A/	e-	e-	.	.	.	2G#X\	.	.	1E	.	.	0.e	-y-	-i-	.	.	.
.	.	.	8d\	.	.	.	.	.	.	.	.	.	.	.	.	.	.	.	.	.	.	.	.
*	*	*	*	*	*	*	*	*	*	*	*	*lig	*	*	*Xlig	*	*	*	*	*	*	*	*
!LO:TX:t=P:problem=kreska pseudotaktowa:mod=	!	!	!	!	!	!	!	!	!	!	!	!	!	!	!	!	!	!	!	!	!	!	!
2E\	e-	e-	2.e\	.	.	2B/	.	.	2b\	e-	e-	1A	-ley-	-lei-	.	.	.	.	.	.	2ee\	e-	e-
!	!	!	!	!	!	!	!	!	!LO:TX:t=P:problem=kreska pseudotaktowa:mod=	!	!	!	!	!	!LO:TX:t=P:problem=kreska pseudotaktowa:mod=	!	!	!LO:TX:t=P:problem=kreska pseudotaktowa:mod=	!	!	!	!	!
0AA	-ley-	-lei-	.	.	.	2.c\	-le-	-le-	0a	-ley-	-lei-	.	.	.	1A	.	.	.	.	.	0cc	-ley-	-lei-
.	.	.	4d\	.	.	.	.	.	.	.	.	.	.	.	.	.	.	.	.	.	.	.	.
.	.	.	4c\	.	.	.	.	.	.	.	.	1.AA/	.	.	.	.	.	.	.	.	.	.	.
!	!	!	!LO:TX:t=P:problem=kreska pseudotaktowa:mod=	!	!	!	!	!	!	!	!	!	!	!	!	!	!	!	!	!	!	!	!
.	.	.	4B\	.	.	4d\	.	.	.	.	.	.	.	.	.	.	.	.	.	.	.	.	.
*	*	*	*	*	*	*	*	*	*	*	*	*Xlig	*	*	*	*	*	*	*	*	*	*	*
!	!	!	!LO:LB:g=original	!	!	!	!	!	!	!	!	!	!	!	!	!	!	!	!	!	!	!	!
=33-	=33-	=33-	=33-	=33-	=33-	=33-	=33-	=33-	=33-	=33-	=33-	=33-	=33-	=33-	=33-	=33-	=33-	=33-	=33-	=33-	=33-	=33-	=33-
.	.	.	2A/	.	.	2e\	.	.	.	.	.	.	.	.	2.A/	-le-	-le-	.	.	.	.	.	.
.	.	.	2E/	-y-	-i-	2A/	-y-	-i-	.	.	.	.	.	.	.	.	.	.	.	.	.	.	.
.	.	.	.	.	.	.	.	.	.	.	.	.	.	.	4E/	-y-	-i-	.	.	.	.	.	.
!	!	!	!	!	!	!	!	!	!	!	!	!	!	!	!LO:TX:a:t=P:problem=# above:mod=	!	!	!	!	!	!	!	!
!LO:SIC:s=1EE;	!	!	!LO:SIC:s=1E;	!	!	!LO:SIC:s=1B;	!	!	!LO:SIC:s=1g#;	!	!	!LO:SIC:s=1E;	!	!	!LO:SIC:s=1G#;i	!	!	!LO:SIC:s=1e;	!	!	!LO:SIC:s=1b;	!	!
1EEl;	-ſon	-son	1El;;	-ſon	-son	1Bl;;	-ſon	-son	1g#Xl;;	-ſon	-son	1El;;	-ſon	-son	1G#Xl;<	-ſon	-son	1el;;	-ſon	-son	1bl;;	-ſon	-son
*	*Xij	*Xij	*	*Xij	*Xij	*	*Xij	*Xij	*	*Xij	*Xij	*	*Xij	*Xij	*	*Xij	*Xij	*	*Xij	*Xij	*	*Xij	*Xij
!	!	!	!	!	!	!	!	!	!	!	!	!	!	!	!LO:LB:g=original	!	!	!	!	!	!	!	!
=34||	=34||	=34||	=34||	=34||	=34||	=34||	=34||	=34||	=34||	=34||	=34||	=34||	=34||	=34||	=34||	=34||	=34||	=34||	=34||	=34||	=34||	=34||	=34||
*M2/1	*	*	*M2/1	*	*	*M2/1	*	*	*M2/1	*	*	*M2/1	*	*	*M2/1	*	*	*M2/1	*	*	*M2/1	*	*
*met(C|)	*	*	*met(C|)	*	*	*met(C|)	*	*	*met(C|)	*	*	*met(C|)	*	*	*met(C|)	*	*	*met(C|)	*	*	*met(C|)	*	*
*mmet(c|)	*	*	*mmet(c|)	*	*	*mmet(c|)	*	*	*mmet(c|)	*	*	*mmet(c|)	*	*	*mmet(c|)	*	*	*mmet(c|)	*	*	*mmet(c|)	*	*
!	!	!	!	!	!	!	!	!	!	!	!	!	!	!	!	!	!	!LO:TX:t=P:problem=kreska pseudotaktowa:mod=	!	!	!	!	!
00r	.	.	00r	.	.	00r	.	.	00r	.	.	1A	Chri-	Chri-	2r	.	.	1r	.	.	0r	.	.
!	!	!	!	!	!	!	!	!	!	!	!	!	!	!	!LO:TX:t=P:problem=kreska pseudotaktowa:mod=	!	!	!	!	!	!	!	!
.	.	.	.	.	.	.	.	.	.	.	.	.	.	.	2A\	Chri-	Chri-	.	.	.	.	.	.
.	.	.	.	.	.	.	.	.	.	.	.	2G#X\	-ſte	-ste	2B\	-ſte	-ste	1e	Chri-	Chri-	.	.	.
!	!	!	!	!	!	!	!	!	!	!	!	!LO:TX:t=P:problem=kreska pseudotaktowa:mod=	!	!	!	!	!	!	!	!	!	!	!
.	.	.	.	.	.	.	.	.	.	.	.	2A\	e-	e-	2c#X\	e-	e-	.	.	.	.	.	.
=35-	=35-	=35-	=35-	=35-	=35-	=35-	=35-	=35-	=35-	=35-	=35-	=35-	=35-	=35-	=35-	=35-	=35-	=35-	=35-	=35-	=35-	=35-	=35-
!	!	!	!	!	!	!	!	!	!	!	!	!	!	!	!	!	!	!	!	!	!LO:TX:t=P:problem=kreska pseudotaktowa:mod=	!	!
.	.	.	.	.	.	.	.	.	.	.	.	2D\	-ley-	-lei-	2d\	-ley-	.	2f\	-ſte	-ste	1r	.	.
!	!	!	!	!	!	!	!	!	!	!	!	!	!	!	!LO:TX:t=P:problem=kreska pseudotaktowa:mod=	!	!	!LO:TX:t=P:problem=kreska pseudotaktowa:mod=	!	!	!	!	!
.	.	.	.	.	.	.	.	.	.	.	.	2E\	-ſon	-son	2B\	.	.	2e\	e-	e-	.	.	.
*	*	*	*	*	*	*	*	*	*	*	*	*	*ij	*ij	*	*	*	*	*	*	*	*	*
!	!	!	!	!	!	!	!	!	!	!	!	!LO:TX:t=P:problem=kreska pseudotaktowa:mod=	!	!	!	!	!	!	!	!	!LO:TX:t=P:problem=kreska pseudotaktowa:mod=	!	!
.	.	.	.	.	.	.	.	.	.	.	.	1F	Chri-	Chri-	1A	-ſon	-lei-	2c\	.	.	1a	Chry-	Chri-
!	!	!	!	!	!	!	!	!	!	!	!	!	!	!	!	!	!	!LO:TX:t=P:problem=kreska pseudotaktowa:mod=	!	!	!	!	!
.	.	.	.	.	.	.	.	.	.	.	.	.	.	.	.	.	.	2d\	.	.	.	.	.
!	!	!	!	!	!	!	!	!	!	!	!	!	!	!	!	!	!	!LO:LB:g=original	!	!	!	!	!
=36-	=36-	=36-	=36-	=36-	=36-	=36-	=36-	=36-	=36-	=36-	=36-	=36-	=36-	=36-	=36-	=36-	=36-	=36-	=36-	=36-	=36-	=36-	=36-
!	!	!	!	!	!	!LO:TX:t=P:problem=kreska pseudotaktowa:mod=	!	!	!	!	!	!	!	!	!	!	!	!	!	!	!	!	!
0r	.	.	0r	.	.	00r	.	.	00r	.	.	2E\	-ſte	-ste	2B\	.	-son	2.e\	-ley-	-lei-	2g#X\	-ſte	-ste
*	*	*	*	*	*	*	*	*	*	*	*	*	*	*	*	*ij	*ij	*	*	*	*	*	*
!	!	!	!	!	!	!	!	!	!	!	!	!	!	!	!LO:TX:t=P:problem=kreska pseudotaktowa:mod=	!	!	!	!	!	!LO:TX:t=P:problem=kreska pseudotaktowa:mod=	!	!
.	.	.	.	.	.	.	.	.	.	.	.	2A\	e-	e-	2cny\	Chri-	Chri-	.	.	.	2a\	e-	e-
!	!	!	!	!	!	!	!	!	!	!	!	!	!	!	!	!	!	!LO:TX:t=P:problem=kreska pseudotaktowa:mod=	!	!	!	!	!
.	.	.	.	.	.	.	.	.	.	.	.	.	.	.	.	.	.	4f#X\	.	.	.	.	.
.	.	.	.	.	.	.	.	.	.	.	.	2Gny\	.	.	2B\	-ſte	-ste	2g\	-ſon	-son	2d/	.	.
*	*	*	*	*	*	*	*	*	*	*	*	*	*	*	*	*	*	*	*ij	*ij	*	*	*
!	!	!	!	!	!	!	!	!	!	!	!	!LO:TX:t=P:problem=kreska pseudotaktowa:mod=	!	!	!	!	!	!LO:TX:t=P:problem=kreska pseudotaktowa:mod=	!	!	!LO:TX:t=P:problem=kreska pseudotaktowa:mod=	!	!
.	.	.	.	.	.	.	.	.	.	.	.	2E\	.	.	2c#X\	e-	e-	2G/	e-	e-	2e/	.	.
=37-	=37-	=37-	=37-	=37-	=37-	=37-	=37-	=37-	=37-	=37-	=37-	=37-	=37-	=37-	=37-	=37-	=37-	=37-	=37-	=37-	=37-	=37-	=37-
!LO:TX:t=P:problem=kreska pseudotaktowa:mod=	!	!	!LO:TX:t=P:problem=kreska pseudotaktowa:mod=	!	!	!	!	!	!	!	!	!	!	!	!	!	!	!	!	!	!	!	!
1r	.	.	1r	.	.	.	.	.	.	.	.	1D	-ley-	-lei-	2d\	-le-	-le-	2A/	-le-	-le-	1f	-ley-	-lei-
!	!	!	!	!	!	!	!	!	!	!	!	!	!	!	!LO:TX:t=P:problem=kreska pseudotaktowa:mod=	!	!	!	!	!	!	!	!
.	.	.	.	.	.	.	.	.	.	.	.	.	.	.	2A/	-y-	-i-	2d\	-y-	-i-	.	.	.
!	!	!	!	!	!	!	!	!	!	!	!	!LO:TX:t=P:problem=kreska pseudotaktowa:mod=	!	!	!LO:TX:t=P:problem=kreska pseudotaktowa:mod=	!	!	!LO:TX:t=P:problem=kreska pseudotaktowa:mod=	!	!	!LO:TX:t=P:problem=kreska pseudotaktowa:mod=	!	!
1A	Chri-	Chri-	2r	.	.	.	.	.	.	.	.	1AA	-ſon	-son	1A	-ſon	-son	1c#X	-ſon	-son	1e	-ſon	-son
.	.	.	2A\	Chri-	Chri-	.	.	.	.	.	.	.	.	.	.	.	.	.	.	.	.	.	.
=38-	=38-	=38-	=38-	=38-	=38-	=38-	=38-	=38-	=38-	=38-	=38-	=38-	=38-	=38-	=38-	=38-	=38-	=38-	=38-	=38-	=38-	=38-	=38-
!	!	!	!	!	!	!	!	!	!LO:TX:t=P:problem=kreska pseudotaktowa:mod=	!	!	!	!	!	!	!	!	!	!	!	!	!	!
2G#X\	-ſte	-ste	2B\	-ſte	-ste	1e	Chri-	Chri-	0r	.	.	00r	.	.	00r	.	.	00r	.	.	00r	.	.
!LO:TX:t=P:problem=kreska pseudotaktowa:mod=	!	!	!LO:TX:t=P:problem=kreska pseudotaktowa:mod=	!	!	!	!	!	!	!	!	!	!	!	!	!	!	!	!	!	!	!	!
2A\	e-	e-	2c#X\	e-	e-	.	.	.	.	.	.	.	.	.	.	.	.	.	.	.	.	.	.
!LO:LB:g=original	!	!	!	!	!	!	!	!	!	!	!	!	!	!	!	!	!	!	!	!	!	!	!
2D\	-ley-	-lei-	2d\	-ley-	-lei-	2f\	-ſte	-ste	.	.	.	.	.	.	.	.	.	.	.	.	.	.	.
!	!	!	!	!	!	!LO:TX:t=P:problem=kreska pseudotaktowa:mod=	!	!	!	!	!	!	!	!	!	!	!	!	!	!	!	!	!
2E\	-ſon	-son	2B\	-ſon	-son	2e\	e-	e-	.	.	.	.	.	.	.	.	.	.	.	.	.	.	.
=39-	=39-	=39-	=39-	=39-	=39-	=39-	=39-	=39-	=39-	=39-	=39-	=39-	=39-	=39-	=39-	=39-	=39-	=39-	=39-	=39-	=39-	=39-	=39-
*	*ij	*ij	*	*ij	*ij	*	*	*	*	*	*	*	*	*	*	*	*	*	*	*	*	*	*
!LO:TX:t=P:problem=kreska pseudotaktowa:mod=	!	!	!LO:TX:t=P:problem=kreska pseudotaktowa:mod=	!	!	!	!	!	!	!	!	!	!	!	!	!	!	!	!	!	!	!	!
1F	Chri-	Chri-	1A	Chri-	Chri-	2c/	-ley-	-lei-	1a	Chri-	Chri-	.	.	.	.	.	.	.	.	.	.	.	.
.	.	.	.	.	.	2d\	-ſon	-son	.	.	.	.	.	.	.	.	.	.	.	.	.	.	.
*	*	*	*	*	*	*	*ij	*ij	*	*	*	*	*	*	*	*	*	*	*	*	*	*	*
2E\	-ſte	-ste	2B\	-ſte	-ste	2.e\	Chri-	Chri-	2g#X\	-ſte	-ste	.	.	.	.	.	.	.	.	.	.	.	.
!	!	!	!	!	!	!	!	!	!LO:TX:t=P:problem=kreska pseudotaktowa:mod=	!	!	!	!	!	!	!	!	!	!	!	!	!	!
2A\	e-	e-	2cny\	e-	e-	.	.	.	2a\	e-	e-	.	.	.	.	.	.	.	.	.	.	.	.
!	!	!	!	!	!	!LO:TX:t=P:problem=kreska pseudotaktowa:mod=	!	!	!	!	!	!	!	!	!	!	!	!	!	!	!	!	!
!	!	!	!	!	!	!LO:SIC:v:s=4f#\	!	!	!	!	!	!	!	!	!	!	!	!	!	!	!	!	!
.	.	.	.	.	.	4f\	.	.	.	.	.	.	.	.	.	.	.	.	.	.	.	.	.
=40-	=40-	=40-	=40-	=40-	=40-	=40-	=40-	=40-	=40-	=40-	=40-	=40-	=40-	=40-	=40-	=40-	=40-	=40-	=40-	=40-	=40-	=40-	=40-
!	!	!	!	!	!	!	!	!	!	!	!	!LO:TX:t=P:problem=kreska pseudotaktowa:mod=	!	!	!LO:TX:t=P:problem=kreska pseudotaktowa:mod=	!	!	!LO:TX:t=P:problem=kreska pseudotaktowa:mod=	!	!	!LO:TX:t=P:problem=kreska pseudotaktowa:mod=	!	!
2Gny\	-le-	-le-	2B\	-le-	-le-	2g\	-ſte	-ste	2d/	-ley-	-lei-	0r	.	.	1r	.	.	1r	.	.	1r	.	.
!LO:TX:t=P:problem=kreska pseudotaktowa:mod=	!	!	!LO:TX:t=P:problem=kreska pseudotaktowa:mod=	!	!	!	!	!	!	!	!	!	!	!	!	!	!	!	!	!	!	!	!
2E\	.	.	2c#X\	.	.	2G/	e-	e-	2e/	.	.	.	.	.	.	.	.	.	.	.	.	.	.
1D	-y-	-i-	2d\	.	.	2A/	-le-	-le-	1f	.	.	.	.	.	2.A\	Chri-	Chri-	2r	.	.	0a	Chri-	Chri-
.	.	.	2A/	-y-	-i-	2d\	-y-	-i-	.	.	.	.	.	.	.	.	.	2.A/	Chri-	Chri-	.	.	.
.	.	.	.	.	.	.	.	.	.	.	.	.	.	.	4B\	.	.	.	.	.	.	.	.
=41-	=41-	=41-	=41-	=41-	=41-	=41-	=41-	=41-	=41-	=41-	=41-	=41-	=41-	=41-	=41-	=41-	=41-	=41-	=41-	=41-	=41-	=41-	=41-
!LO:TX:t=P:problem=kreska pseudotaktowa:mod=	!	!	!LO:TX:t=P:problem=kreska pseudotaktowa:mod=	!	!	!LO:TX:t=P:problem=kreska pseudotaktowa:mod=	!	!	!LO:TX:t=P:problem=kreska pseudotaktowa:mod=	!	!	!	!	!	!	!	!	!	!	!	!	!	!
1AA	-ſon	-son	1A	-ſon	-son	1c#X	-ſon	-son	1e	-ſon	-son	2r	.	.	4c#X\	.	.	.	.	.	.	.	.
.	.	.	.	.	.	.	.	.	.	.	.	.	.	.	4d\	.	.	4B/	.	.	.	.	.
!	!	!	!	!	!	!	!	!	!	!	!	!LO:TX:t=P:problem=kreska pseudotaktowa:mod=	!	!	!LO:TX:t=P:problem=kreska pseudotaktowa:mod=	!	!	!LO:TX:t=P:problem=kreska pseudotaktowa:mod=	!	!	!	!	!
.	.	.	.	.	.	.	.	.	.	.	.	2AA/	Chri-	Chri-	2e\	.	.	2c#X\	.	.	.	.	.
!	!	!	!	!	!	!	!	!	!LO:LB:g=original	!	!	!	!	!	!	!	!	!	!	!	!	!	!
0r	.	.	0r	.	.	0r	.	.	0r	.	.	2BB/	-ſte	-ste	2d\	-ſte	-ste	2d\	-ſte	-ste	2g#X\	-ſte	-ste
!	!	!	!	!	!	!	!	!	!	!	!	!LO:TX:t=P:problem=kreska pseudotaktowa:mod=	!	!	!	!	!	!	!	!	!LO:TX:t=P:problem=kreska pseudotaktowa:mod=	!	!
.	.	.	.	.	.	.	.	.	.	.	.	2C#X/	e-	e-	1A\	e-	e-	2.e\	e-	e-	2a\	e-	e-
=42-	=42-	=42-	=42-	=42-	=42-	=42-	=42-	=42-	=42-	=42-	=42-	=42-	=42-	=42-	=42-	=42-	=42-	=42-	=42-	=42-	=42-	=42-	=42-
.	.	.	.	.	.	.	.	.	.	.	.	2D/	-le-	-le-	.	.	.	.	.	.	2f/	.	.
.	.	.	.	.	.	.	.	.	.	.	.	.	.	.	.	.	.	4d\	.	.	.	.	.
!	!	!	!	!	!	!	!	!	!	!	!	!	!	!	!LO:TX:t=P:problem=kreska pseudotaktowa:mod=	!	!	!	!	!	!LO:TX:t=P:problem=kreska pseudotaktowa:mod=	!	!
.	.	.	.	.	.	.	.	.	.	.	.	2BB/	.	.	2G/	-le-	-le-	1d	-le-	-le-	2gny/	.	.
!LO:TX:t=P:problem=kreska pseudotaktowa:mod=	!	!	!	!	!	!	!	!	!LO:TX:t=P:problem=kreska pseudotaktowa:mod=	!	!	!	!	!	!	!	!	!	!	!	!	!	!
1r	.	.	2r	.	.	2r	.	.	1r	.	.	1AA	-y-	-i-	2F/	.	.	.	.	.	1a	-ley-	-lei-
.	.	.	2.A/	Chri-	Chri-	2.a\	Chri-	Chri-	.	.	.	.	.	.	2E/	-y-	-i-	2c#X\	-y-	-i-	.	.	.
=43-	=43-	=43-	=43-	=43-	=43-	=43-	=43-	=43-	=43-	=43-	=43-	=43-	=43-	=43-	=43-	=43-	=43-	=43-	=43-	=43-	=43-	=43-	=43-
*	*	*	*	*	*	*	*	*	*	*ij	*ij	*	*	*	*	*	*	*	*	*	*	*	*
!	!	!	!	!	!	!	!	!	!	!	!	!LO:TX:t=P:problem=kreska pseudotaktowa:mod=	!	!	!LO:TX:t=P:problem=kreska pseudotaktowa:mod=	!	!	!LO:TX:t=P:problem=kreska pseudotaktowa:mod=	!	!	!LO:TX:t=P:problem=kreska pseudotaktowa:mod=	!	!
2r	.	.	.	.	.	.	.	.	1dd	Chri-	Chri-	1D	-ſon	-son	1D	-ſon	-son	1d	-ſon	-son	1f#X	-ſon	-son
.	.	.	8B\L	.	.	4g\	.	.	.	.	.	.	.	.	.	.	.	.	.	.	.	.	.
.	.	.	8cny\J	.	.	.	.	.	.	.	.	.	.	.	.	.	.	.	.	.	.	.	.
!LO:TX:t=P:problem=kreska pseudotaktowa:mod=	!	!	!	!	!	!LO:TX:t=P:problem=kreska pseudotaktowa:mod=	!	!	!	!	!	!	!	!	!	!	!	!	!	!	!	!	!
2D\	Chri-	Chri-	4d\	.	.	2f#X\	.	.	.	.	.	.	.	.	.	.	.	.	.	.	.	.	.
!	!	!	!LO:TX:t=P:problem=kreska pseudotaktowa:mod=	!	!	!	!	!	!	!	!	!	!	!	!	!	!	!	!	!	!	!	!
.	.	.	4A\	.	.	.	.	.	.	.	.	.	.	.	.	.	.	.	.	.	.	.	.
!	!	!	!	!	!	!	!	!	!	!	!	!LO:LB:g=original	!	!	!	!	!	!	!	!	!	!	!
2E\	-ſte	-ste	2e\	-ſte	-ste	2g\	-ſte	-ste	2cc#X\	-ſte	-ste	0r	.	.	0r	.	.	0r	.	.	0r	.	.
!LO:TX:t=P:problem=kreska pseudotaktowa:mod=	!	!	!	!	!	!	!	!	!LO:TX:t=P:problem=kreska pseudotaktowa:mod=	!	!	!	!	!	!	!	!	!	!	!	!	!	!
2F#X\	e-	e-	2A\	e-	e-	2.a\	e-	e-	2dd\	e-	e-	.	.	.	.	.	.	.	.	.	.	.	.
=44-	=44-	=44-	=44-	=44-	=44-	=44-	=44-	=44-	=44-	=44-	=44-	=44-	=44-	=44-	=44-	=44-	=44-	=44-	=44-	=44-	=44-	=44-	=44-
2G\	-le-	-le-	2d\	-le-	-le-	.	.	.	2b\	-le-	-le-	.	.	.	.	.	.	.	.	.	.	.	.
.	.	.	.	.	.	4g\	.	.	.	.	.	.	.	.	.	.	.	.	.	.	.	.	.
!	!	!	!LO:TX:t=P:problem=kreska pseudotaktowa:mod=	!	!	!LO:LB:g=original	!	!	!	!	!	!	!	!	!	!	!	!	!	!	!	!	!
2E\	.	.	2G/	.	.	1g	-le-	-le-	2cc#X\	.	.	.	.	.	.	.	.	.	.	.	.	.	.
!LO:TX:t=P:problem=kreska pseudotaktowa:mod=	!	!	!	!	!	!	!	!	!	!	!	!LO:TX:t=P:problem=kreska pseudotaktowa:mod=	!	!	!LO:TX:t=P:problem=kreska pseudotaktowa:mod=	!	!	!	!	!	!LO:TX:t=P:problem=kreska pseudotaktowa:mod=	!	!
1D	-y-	-i-	1A	-y-	-i-	.	.	.	1dd	-y-	-i-	1r	.	.	1r	.	.	2r	.	.	1r	.	.
.	.	.	.	.	.	2f#X\	-y-	-i-	.	.	.	.	.	.	.	.	.	2.d\	Chri-	Chri-	.	.	.
=45-	=45-	=45-	=45-	=45-	=45-	=45-	=45-	=45-	=45-	=45-	=45-	=45-	=45-	=45-	=45-	=45-	=45-	=45-	=45-	=45-	=45-	=45-	=45-
*	*	*	*	*	*	*	*	*	*	*	*	*	*	*	*	*	*	*	*	*	*	*ij	*ij
!	!	!	!LO:TX:t=P:problem=kreska pseudotaktowa:mod=	!	!	!LO:TX:t=P:problem=kreska pseudotaktowa:mod=	!	!	!LO:TX:t=P:problem=kreska pseudotaktowa:mod=	!	!	!	!	!	!	!	!	!	!	!	!	!	!
1GG	-ſon	-son	1G	-ſon	-son	1g	-ſon	-son	1b	-ſon	-son	1G	Chri-	Chri-	1B	Chri-	Chri-	.	.	.	1dd	Chri-	Chri-
.	.	.	.	.	.	.	.	.	.	.	.	.	.	.	.	.	.	8e\L	.	.	.	.	.
.	.	.	.	.	.	.	.	.	.	.	.	.	.	.	.	.	.	8fny\J	.	.	.	.	.
.	.	.	.	.	.	.	.	.	.	.	.	.	.	.	.	.	.	4g\	.	.	.	.	.
!	!	!	!	!	!	!	!	!	!	!	!	!	!	!	!	!	!	!LO:TX:t=P:problem=kreska pseudotaktowa:mod=	!	!	!	!	!
.	.	.	.	.	.	.	.	.	.	.	.	.	.	.	.	.	.	4d\	.	.	.	.	.
0r	.	.	0r	.	.	0r	.	.	0r	.	.	2A\	-ſte	-ste	2cny\	-ſte	-ste	1f	-ſte	-ste	2cc\	-ſte	-ste
!	!	!	!	!	!	!	!	!	!	!	!	!LO:TX:t=P:problem=kreska pseudotaktowa:mod=	!	!	!LO:LB:g=original	!	!	!	!	!	!	!	!
.	.	.	.	.	.	.	.	.	.	.	.	2B\	e-	e-	2.d\	e-	e-	.	.	.	4b\	e-	e-
!	!	!	!	!	!	!	!	!	!	!	!	!	!	!	!	!	!	!	!	!	!LO:TX:t=P:problem=kreska pseudotaktowa:mod=	!	!
.	.	.	.	.	.	.	.	.	.	.	.	.	.	.	.	.	.	.	.	.	4a\	.	.
=46-	=46-	=46-	=46-	=46-	=46-	=46-	=46-	=46-	=46-	=46-	=46-	=46-	=46-	=46-	=46-	=46-	=46-	=46-	=46-	=46-	=46-	=46-	=46-
.	.	.	.	.	.	.	.	.	.	.	.	2c\	-le-	-le-	.	.	.	2e\	e-	e-	2g/	-le-	-le-
.	.	.	.	.	.	.	.	.	.	.	.	.	.	.	4c\	.	.	.	.	.	.	.	.
!	!	!	!	!	!	!	!	!	!	!	!	!	!	!	!	!	!	!	!	!	!LO:TX:t=P:problem=kreska pseudotaktowa:mod=	!	!
.	.	.	.	.	.	.	.	.	.	.	.	2A\	.	.	1c	-le-	-le-	4d\	.	.	2f#X/	.	.
!	!	!	!	!	!	!	!	!	!	!	!	!	!	!	!	!	!	!LO:TX:t=P:problem=kreska pseudotaktowa:mod=	!	!	!	!	!
.	.	.	.	.	.	.	.	.	.	.	.	.	.	.	.	.	.	4cny\	.	.	.	.	.
!LO:TX:t=P:problem=kreska pseudotaktowa:mod=	!	!	!	!	!	!	!	!	!LO:TX:t=P:problem=kreska pseudotaktowa:mod=	!	!	!	!	!	!	!	!	!	!	!	!LO:LB:g=original	!	!
1r	.	.	2r	.	.	4d\	Chri-	Chri-	1r	.	.	1G	-y-	-i-	.	.	.	1d	-ley-	-lei-	1g	-y-	-i-
.	.	.	.	.	.	8e\L	.	.	.	.	.	.	.	.	.	.	.	.	.	.	.	.	.
.	.	.	.	.	.	8fny\J	.	.	.	.	.	.	.	.	.	.	.	.	.	.	.	.	.
!	!	!	!	!	!	!	!	!	!	!	!	!	!	!	!LO:TX:t=P:problem=kreska pseudotaktowa:mod=	!	!	!	!	!	!	!	!
.	.	.	2.G/	Chri-	Chri-	2.g\	.	.	.	.	.	.	.	.	2B\	-y-	-i-	.	.	.	.	.	.
=47-	=47-	=47-	=47-	=47-	=47-	=47-	=47-	=47-	=47-	=47-	=47-	=47-	=47-	=47-	=47-	=47-	=47-	=47-	=47-	=47-	=47-	=47-	=47-
!	!	!	!	!	!	!	!	!	!LO:TX:t=P:problem=kreska pseudotaktowa:mod=	!	!	!LO:TX:t=P:problem=kreska pseudotaktowa:mod=	!	!	!LO:TX:t=P:problem=kreska pseudotaktowa:mod=	!	!	!LO:TX:t=P:problem=kreska pseudotaktowa:mod=	!	!	!LO:TX:t=P:problem=kreska pseudotaktowa:mod=	!	!
1C	Chri-	Chri-	.	.	.	.	.	.	1e	Chri-	Chri-	1Cny	-ſon	-son	1c	-ſon	-son	1e	-ſon	-son	1g	-ſon	-son
*	*	*	*	*	*	*	*	*	*	*	*	*	*	*	*	*	*	*	*	*	*	*Xij	*Xij
.	.	.	8A\L	.	.	4f\	.	.	.	.	.	.	.	.	.	.	.	.	.	.	.	.	.
.	.	.	8B\J	.	.	.	.	.	.	.	.	.	.	.	.	.	.	.	.	.	.	.	.
!	!	!	!LO:TX:t=P:problem=kreska pseudotaktowa:mod=	!	!	!LO:TX:t=P:problem=kreska pseudotaktowa:mod=	!	!	!	!	!	!	!	!	!	!	!	!	!	!	!	!	!
.	.	.	2c\	.	.	2e\	.	.	.	.	.	.	.	.	.	.	.	.	.	.	.	.	.
!	!	!	!	!	!	!	!	!	!	!	!	!	!	!	!	!	!	!LO:TX:t=P:problem=kreska pseudotaktowa:mod=	!	!	!	!	!
2D\	-ſte	-ste	1B-X	-ſte	-ste	2d\	-ſte	-ste	2f/	-ſte	-ste	0r	.	.	0r	.	.	0r	.	.	00r	.	.
!LO:TX:t=P:problem=kreska pseudotaktowa:mod=	!	!	!	!	!	!	!	!	!	!	!	!	!	!	!	!	!	!	!	!	!	!	!
2E\	e-	e-	.	.	.	2G/	e-	e-	2.gny/	e-	e-	.	.	.	.	.	.	.	.	.	.	.	.
=48-	=48-	=48-	=48-	=48-	=48-	=48-	=48-	=48-	=48-	=48-	=48-	=48-	=48-	=48-	=48-	=48-	=48-	=48-	=48-	=48-	=48-	=48-	=48-
2Fny\	-le-	-le-	2A/	e-	e-	2cny/	-le-	-le-	.	.	.	.	.	.	.	.	.	.	.	.	.	.	.
.	.	.	.	.	.	.	.	.	4f/	.	.	.	.	.	.	.	.	.	.	.	.	.	.
!	!	!	!	!	!	!LO:TX:t=P:problem=kreska pseudotaktowa:mod=	!	!	!	!	!	!	!	!	!	!	!	!	!	!	!	!	!
2D\	.	.	4G/	-le-	-le-	2B/	.	.	1f	-le-	-le-	.	.	.	.	.	.	.	.	.	.	.	.
!	!	!	!LO:TX:t=P:problem=kreska pseudotaktowa:mod=	!	!	!	!	!	!	!	!	!	!	!	!	!	!	!	!	!	!	!	!
.	.	.	4F/	.	.	.	.	.	.	.	.	.	.	.	.	.	.	.	.	.	.	.	.
!LO:TX:t=P:problem=kreska pseudotaktowa:mod=	!	!	!	!	!	!	!	!	!	!	!	!LO:TX:t=P:problem=kreska pseudotaktowa:mod=	!	!	!LO:TX:t=P:problem=kreska pseudotaktowa:mod=	!	!	!LO:LB:g=original	!	!	!	!	!
1C	-y-	-i-	1G	-y-	-i-	1c	-y-	-i-	.	.	.	1r	.	.	1r	.	.	2r	.	.	.	.	.
.	.	.	.	.	.	.	.	.	2e/	-y-	-i-	.	.	.	.	.	.	2.c/	Chri-	Chri-	.	.	.
=49-	=49-	=49-	=49-	=49-	=49-	=49-	=49-	=49-	=49-	=49-	=49-	=49-	=49-	=49-	=49-	=49-	=49-	=49-	=49-	=49-	=49-	=49-	=49-
!	!	!	!LO:TX:t=P:problem=kreska pseudotaktowa:mod=	!	!	!LO:TX:t=P:problem=kreska pseudotaktowa:mod=	!	!	!LO:TX:t=P:problem=kreska pseudotaktowa:mod=	!	!	!	!	!	!	!	!	!	!	!	!	!	!
1FF	-ſon	-son	1F	-ſon	-son	1c	-ſon	-son	1f	-ſon	-son	1F	Chri-	Chri-	2.A\	Chri-	Chri-	.	.	.	.	.	.
.	.	.	.	.	.	.	.	.	.	.	.	.	.	.	.	.	.	4B/	.	.	.	.	.
.	.	.	.	.	.	.	.	.	.	.	.	.	.	.	.	.	.	4c\	.	.	.	.	.
!	!	!	!	!	!	!	!	!	!	!	!	!	!	!	!	!	!	!LO:TX:t=P:problem=kreska pseudotaktowa:mod=	!	!	!	!	!
.	.	.	.	.	.	.	.	.	.	.	.	.	.	.	4B\	.	.	4d\	.	.	.	.	.
00r	.	.	00r	.	.	00r	.	.	0r	.	.	2E\	-ſte	-ste	2c\	.	.	2e\	.	.	2r	.	.
!	!	!	!	!	!	!	!	!	!	!	!	!LO:TX:t=P:problem=kreska pseudotaktowa:mod=	!	!	!LO:TX:t=P:problem=kreska pseudotaktowa:mod=	!	!	!LO:TX:t=P:problem=kreska pseudotaktowa:mod=	!	!	!	!	!
.	.	.	.	.	.	.	.	.	.	.	.	2F\	.	.	2A/	.	.	2c/	-ſte	-ste	1a\	Chri-	Chri-
=50-	=50-	=50-	=50-	=50-	=50-	=50-	=50-	=50-	=50-	=50-	=50-	=50-	=50-	=50-	=50-	=50-	=50-	=50-	=50-	=50-	=50-	=50-	=50-
.	.	.	.	.	.	.	.	.	.	.	.	2D\	.	.	1B	-ſte	-ste	2f\	e-	e-	.	.	.
!	!	!	!	!	!	!	!	!	!	!	!	!	!	!	!	!	!	!	!	!	!LO:TX:t=P:problem=kreska pseudotaktowa:mod=	!	!
.	.	.	.	.	.	.	.	.	.	.	.	2E\	.	.	.	.	.	4e\	.	.	2g#X/	.	.
.	.	.	.	.	.	.	.	.	.	.	.	.	.	.	.	.	.	4d\	.	.	.	.	.
!	!	!	!	!	!	!	!	!	!LO:TX:t=P:problem=kreska pseudotaktowa:mod=	!	!	!	!	!	!LO:TX:t=P:problem=kreska pseudotaktowa:mod=	!	!	!	!	!	!	!	!
.	.	.	.	.	.	.	.	.	1r	.	.	2AA/	.	.	1A	e-	e-	2c#X\	.	.	1a	-ſte	-ste
!	!	!	!	!	!	!	!	!	!	!	!	!	!	!	!	!	!	!LO:TX:t=P:problem=kreska pseudotaktowa:mod=	!	!	!	!	!
.	.	.	.	.	.	.	.	.	.	.	.	1D\	e-	e-	.	.	.	2d\	.	.	.	.	.
=51-	=51-	=51-	=51-	=51-	=51-	=51-	=51-	=51-	=51-	=51-	=51-	=51-	=51-	=51-	=51-	=51-	=51-	=51-	=51-	=51-	=51-	=51-	=51-
.	.	.	.	.	.	.	.	.	2r	.	.	.	.	.	0A	-ley-	-lei-	2f\	-le-	-le-	2d/	e-	e-
!	!	!	!	!	!	!	!	!	!	!	!	!LO:TX:t=P:problem=kreska pseudotaktowa:mod=	!	!	!	!	!	!	!	!	!LO:TX:t=P:problem=kreska pseudotaktowa:mod=	!	!
.	.	.	.	.	.	.	.	.	2.a\	Chri-	Chri-	2C#X/	-le-	-le-	.	.	.	2e\	.	.	2e/	.	.
!LO:TX:t=P:problem=kreska pseudotaktowa:mod=	!	!	!LO:TX:t=P:problem=kreska pseudotaktowa:mod=	!	!	!	!	!	!	!	!	!	!	!	!	!	!	!LO:TX:t=P:problem=kreska pseudotaktowa:mod=	!	!	!	!	!
1r	.	.	1r	.	.	1r	.	.	.	.	.	1D	-y-	-i-	.	.	.	1d	-y-	-i-	1fny	-ley-	-lei-
.	.	.	.	.	.	.	.	.	4g\	.	.	.	.	.	.	.	.	.	.	.	.	.	.
.	.	.	.	.	.	.	.	.	4a\	.	.	.	.	.	.	.	.	.	.	.	.	.	.
!	!	!	!	!	!	!	!	!	!LO:TX:t=P:problem=kreska pseudotaktowa:mod=	!	!	!	!	!	!	!	!	!	!	!	!	!	!
.	.	.	.	.	.	.	.	.	4b\	.	.	.	.	.	.	.	.	.	.	.	.	.	.
=52-	=52-	=52-	=52-	=52-	=52-	=52-	=52-	=52-	=52-	=52-	=52-	=52-	=52-	=52-	=52-	=52-	=52-	=52-	=52-	=52-	=52-	=52-	=52-
!	!	!	!	!	!	!	!	!	!	!	!	!LO:TX:t=P:problem=kreska pseudotaktowa:mod=	!	!	!LO:TX:t=P:problem=kreska pseudotaktowa:mod=	!	!	!	!	!	!LO:TX:t=P:problem=kreska pseudotaktowa:mod=	!	!
2r	.	.	1A	Chri-	Chri-	0e	e-	e-	1ccny	-ſte	-ste	1AA	-ſon	-son	1A	-ſon	-son	1cny	-ſon	-son	1e	-ſon	-son
2A\	Chri-	Chri-	.	.	.	.	.	.	.	.	.	.	.	.	.	.	.	.	.	.	.	.	.
2G#X\	-ſte	-ste	2Bny\	.	.	.	.	.	2b\	e-	e-	1r	.	.	1r	.	.	1ryy	.	.	1r	.	.
!LO:LB:g=original	!	!	!	!	!	!	!	!	!	!	!	!	!	!	!	!	!	!	!	!	!	!	!
!LO:TX:t=P:problem=kreska pseudotaktowa:mod=	!	!	!	!	!	!	!	!	!	!	!	!	!	!	!	!	!	!	!	!	!	!	!
2A\	e-	e-	1c\	-ſte	-ste	.	.	.	4a\	-le-	-le-	.	.	.	.	.	.	.	.	.	.	.	.
!	!	!	!	!	!	!	!	!	!LO:TX:t=P:problem=kreska pseudotaktowa:mod=	!	!	!	!	!	!	!	!	!	!	!	!	!	!
.	.	.	.	.	.	.	.	.	4b\	.	.	.	.	.	.	.	.	.	.	.	.	.	.
=53-	=53-	=53-	=53-	=53-	=53-	=53-	=53-	=53-	=53-	=53-	=53-	=53-	=53-	=53-	=53-	=53-	=53-	=53-	=53-	=53-	=53-	=53-	=53-
*	*	*	*	*	*	*	*	*	*	*	*	*	*	*	*	*	*	*	*	*	*	*ij	*ij
!	!	!	!	!	!	!	!	!	!	!	!	!	!	!	!	!	!	!LO:TX:t=P:problem=kreska pseudotaktowa:mod=	!	!	!LO:TX:t=P:problem=kreska pseudotaktowa:mod=	!	!
4AA/	-le-	-le-	.	.	.	0e	-ley-	-lei-	4cc\	.	.	1A	Chri-	Chri-	1A	Chri-	Chri-	1c	Chri-	Chri-	1cc	Chri-	Chri-
4BB/	.	.	.	.	.	.	.	.	4dd\	.	.	.	.	.	.	.	.	.	.	.	.	.	.
!	!	!	!LO:TX:t=P:problem=kreska pseudotaktowa:mod=	!	!	!	!	!	!	!	!	!	!	!	!	!	!	!	!	!	!	!	!
4C/	.	.	2A\	e-	e-	.	.	.	1ee	-y-	-i-	.	.	.	.	.	.	.	.	.	.	.	.
!LO:TX:t=P:problem=kreska pseudotaktowa:mod=	!	!	!	!	!	!	!	!	!	!	!	!	!	!	!	!	!	!	!	!	!	!	!
4AA/	.	.	.	.	.	.	.	.	.	.	.	.	.	.	.	.	.	.	.	.	.	.	.
2E\	-y-	-i-	2B\	.	.	.	.	.	.	.	.	2G#X\	-ſte	-ste	2E/	-ſte	-ste	1e	-ſte	-ste	2b\	.	.
!	!	!	!	!	!	!	!	!	!LO:TX:t=P:problem=kreska pseudotaktowa:mod=	!	!	!LO:TX:t=P:problem=kreska pseudotaktowa:mod=	!	!	!LO:TX:t=P:problem=kreska pseudotaktowa:mod=	!	!	!	!	!	!LO:TX:t=P:problem=kreska pseudotaktowa:mod=	!	!
2AA/	-ſon	-son	2A\	-le-	-le-	.	.	.	2ee\	-ſon	-son	2A\	e-	e-	2A/	e-	e-	.	.	.	2cc#X\	.	.
=54-	=54-	=54-	=54-	=54-	=54-	=54-	=54-	=54-	=54-	=54-	=54-	=54-	=54-	=54-	=54-	=54-	=54-	=54-	=54-	=54-	=54-	=54-	=54-
!LO:TX:t=P:problem=kreska pseudotaktowa:mod=	!	!	!	!	!	!LO:TX:t=P:problem=kreska pseudotaktowa:mod=	!	!	!	!	!	!	!	!	!	!	!	!LO:TX:t=P:problem=kreska pseudotaktowa:mod=	!	!	!LO:TX:t=P:problem=kreska pseudotaktowa:mod=	!	!
1D	Chri-	Chri-	2A\	-y-	-i-	1d	-ſon	-son	2r	.	.	4D\	le-	le-	2F/	le-	le-	1f	e-	e-	1dd	-ſte	-ste
.	.	.	.	.	.	.	.	.	.	.	.	4E\	.	.	.	.	.	.	.	.	.	.	.
!	!	!	!LO:TX:t=P:problem=kreska pseudotaktowa:mod=	!	!	!	!	!	!LO:TX:t=P:problem=kreska pseudotaktowa:mod=	!	!	!	!	!	!	!	!	!	!	!	!	!	!
.	.	.	2A\	-ſon	-son	.	.	.	2a\	Chri-	Chri-	4F\	.	.	2A/	-y-	-i-	.	.	.	.	.	.
.	.	.	.	.	.	.	.	.	.	.	.	4D\	.	.	.	.	.	.	.	.	.	.	.
!	!	!	!	!	!	!	!	!	!	!	!	!	!	!	!LO:TX:t=P:problem=kreska pseudotaktowa:mod=	!	!	!	!	!	!	!	!
2C#X/	-ſte	-ste	1A	Chri-	Chri-	2r	.	.	2a\	-ſte	-ste	2A\	-y-	-i-	1A	-ſon	-son	2e\	-le-	-le-	2ee\	e-	e-
!LO:TX:t=P:problem=kreska pseudotaktowa:mod=	!	!	!	!	!	!	!	!	!LO:TX:t=P:problem=kreska pseudotaktowa:mod=	!	!	!LO:TX:t=P:problem=kreska pseudotaktowa:mod=	!	!	!	!	!	!	!	!	!	!	!
2D/	e-	e-	.	.	.	1d\	Chri-	Chri-	2a\	e-	e-	2D/	-ſon	-son	.	.	.	2f#X\	-y-	-i-	2.dd\	-le-	-le-
!	!	!	!	!	!	!	!	!	!LO:LB:g=original	!	!	!	!	!	!	!	!	!	!	!	!	!	!
=55-	=55-	=55-	=55-	=55-	=55-	=55-	=55-	=55-	=55-	=55-	=55-	=55-	=55-	=55-	=55-	=55-	=55-	=55-	=55-	=55-	=55-	=55-	=55-
!	!	!	!	!	!	!	!	!	!	!	!	!LO:TX:t=P:problem=kreska pseudotaktowa:mod=	!	!	!	!	!	!LO:TX:t=P:problem=kreska pseudotaktowa:mod=	!	!	!	!	!
4GG/	-le-	-le-	2.G/	.	.	.	.	.	2b\	-le-	-le-	1Gny	Chri-	Chri-	2r	.	.	1g	-ſon	-son	.	.	.
4AA/	.	.	.	.	.	.	.	.	.	.	.	.	.	.	.	.	.	.	.	.	4ccny\	.	.
!	!	!	!	!	!	!LO:TX:t=P:problem=kreska pseudotaktowa:mod=	!	!	!LO:TX:t=P:problem=kreska pseudotaktowa:mod=	!	!	!	!	!	!LO:TX:t=P:problem=kreska pseudotaktowa:mod=	!	!	!	!	!	!LO:TX:t=P:problem=kreska pseudotaktowa:mod=	!	!
4BB/	.	.	.	.	.	2d\	-ſte	-ste	2dd\	.	.	.	.	.	2G/	Chri-	Chri-	.	.	.	2b\	.	.
!LO:TX:t=P:problem=kreska pseudotaktowa:mod=	!	!	!LO:TX:t=P:problem=kreska pseudotaktowa:mod=	!	!	!	!	!	!	!	!	!	!	!	!	!	!	!	!	!	!	!	!
4GG/	.	.	4B\	.	.	.	.	.	.	.	.	.	.	.	.	.	.	.	.	.	.	.	.
!	!	!	!	!	!	!	!	!	!	!	!	!LO:LB:g=original	!	!	!	!	!	!	!	!	!	!	!
2D/	-y-	-i-	2A\	.	.	1d	e-	e-	1dd	-y-	-i-	2F#X\	-ſte	-ste	2D/	-ſte	-ste	2a\	e-	e-	2dd\	.	.
!	!	!	!	!	!	!	!	!	!	!	!	!LO:TX:t=P:problem=kreska pseudotaktowa:mod=	!	!	!LO:TX:t=P:problem=kreska pseudotaktowa:mod=	!	!	!	!	!	!LO:TX:t=P:problem=kreska pseudotaktowa:mod=	!	!
2GG/	-ſon	-son	2B\	.	.	.	.	.	.	.	.	2G\	e-	e-	2G/	e-	e-	4g\	le-	le-	2b\	-y-	-i-
.	.	.	.	.	.	.	.	.	.	.	.	.	.	.	.	.	.	4fny\	.	.	.	.	.
=56-	=56-	=56-	=56-	=56-	=56-	=56-	=56-	=56-	=56-	=56-	=56-	=56-	=56-	=56-	=56-	=56-	=56-	=56-	=56-	=56-	=56-	=56-	=56-
!LO:TX:t=P:problem=kreska pseudotaktowa:mod=	!	!	!	!	!	!	!	!	!LO:TX:t=P:problem=kreska pseudotaktowa:mod=	!	!	!	!	!	!	!	!	!	!	!	!	!	!
1Cny	Chri-	Chri-	0G	-ſte	-ste	1c	-le-	-le-	1ee	-ſon	-son	4Cny\	le-	le-	4E/	le-	le-	0g	-y-	-i-	1cc	-ſon	-son
.	.	.	.	.	.	.	.	.	.	.	.	4D\	.	.	4F/	.	.	.	.	.	.	.	.
.	.	.	.	.	.	.	.	.	.	.	.	4E\	.	.	4G/	.	.	.	.	.	.	.	.
!	!	!	!	!	!	!	!	!	!	!	!	!LO:TX:t=P:problem=kreska pseudotaktowa:mod=	!	!	!LO:TX:t=P:problem=kreska pseudotaktowa:mod=	!	!	!	!	!	!	!	!
.	.	.	.	.	.	.	.	.	.	.	.	4C\	.	.	4A/	.	.	.	.	.	.	.	.
2BB/	-ſte	-ste	.	.	.	2d/	.	.	2r	.	.	2G\	-y-	-i-	2B\	-y-	-i-	.	.	.	2dd\	e-	e-
!	!	!	!	!	!	!LO:TX:t=P:problem=kreska pseudotaktowa:mod=	!	!	!LO:TX:t=P:problem=kreska pseudotaktowa:mod=	!	!	!	!	!	!	!	!	!	!	!	!LO:TX:t=P:problem=kreska pseudotaktowa:mod=	!	!
2C/	e-	e-	.	.	.	2c/	-y-	-i-	2cc\	Chri-	Chri-	2C/	-ſon	-son	4G/	-ſon	-son	.	.	.	2ee\	le-	le-
.	.	.	.	.	.	.	.	.	.	.	.	.	.	.	2c\	Chri-	Chri-	.	.	.	.	.	.
=57-	=57-	=57-	=57-	=57-	=57-	=57-	=57-	=57-	=57-	=57-	=57-	=57-	=57-	=57-	=57-	=57-	=57-	=57-	=57-	=57-	=57-	=57-	=57-
!	!	!	!LO:TX:t=P:problem=kreska pseudotaktowa:mod=	!	!	!	!	!	!	!	!	!LO:TX:t=P:problem=kreska pseudotaktowa:mod=	!	!	!	!	!	!LO:TX:t=P:problem=kreska pseudotaktowa:mod=	!	!	!	!	!
4FF/	-le-	-le-	1A	e-	e-	0c	-ſon	-son	4a\	-ſte	-ste	1Fny	Chri-	Chri-	.	.	.	1f	-ſon	-son	1cc	-y-	-i-
4GG/	.	.	.	.	.	.	.	.	4b\	.	.	.	.	.	4B\	-ſte	-ste	.	.	.	.	.	.
4AA/	.	.	.	.	.	.	.	.	4cc\	.	.	.	.	.	4.A\	.	.	.	.	.	.	.	.
!LO:TX:t=P:problem=kreska pseudotaktowa:mod=	!	!	!	!	!	!	!	!	!LO:TX:t=P:problem=kreska pseudotaktowa:mod=	!	!	!	!	!	!	!	!	!	!	!	!	!	!
4FF/	.	.	.	.	.	.	.	.	4dd\	.	.	.	.	.	.	.	.	.	.	.	.	.	.
!	!	!	!	!	!	!	!	!	!	!	!	!	!	!	!LO:TX:t=P:problem=kreska pseudotaktowa:mod=	!	!	!	!	!	!	!	!
.	.	.	.	.	.	.	.	.	.	.	.	.	.	.	8B\	.	.	.	.	.	.	.	.
!	!	!	!LO:LB:g=original	!	!	!	!	!	!	!	!	!	!	!	!LO:LB:g=original	!	!	!	!	!	!LO:TX:t=P:problem=kreska pseudotaktowa:mod=	!	!
2C/	-y-	-i-	2G/	-le-	-le-	.	.	.	2ee\	.	.	2E\	-ſte	-ste	2c\	e-	e-	2g\	e-	e-	1cc,<	-ſon	-son
!LO:TX:t=P:problem=kreska pseudotaktowa:mod=	!	!	!	!	!	!	!	!	!	!	!	!LO:TX:t=P:problem=kreska pseudotaktowa:mod=	!	!	!	!	!	!	!	!	!	!	!
2FF/	-ſon	-son	2A/	-y-	-i-	.	.	.	2.a\	e-	e-	2F\	e-	e-	1A\	-ley-	-lei-	4f\	le-	le-	.	.	.
.	.	.	.	.	.	.	.	.	.	.	.	.	.	.	.	.	.	4e\	.	.	.	.	.
=58-	=58-	=58-	=58-	=58-	=58-	=58-	=58-	=58-	=58-	=58-	=58-	=58-	=58-	=58-	=58-	=58-	=58-	=58-	=58-	=58-	=58-	=58-	=58-
!	!	!	!LO:TX:t=P:problem=kreska pseudotaktowa:mod=	!	!	!	!	!	!	!	!	!	!	!	!	!	!	!LO:TX:t=P:problem=kreska pseudotaktowa:mod=	!	!	!	!	!
2r	.	.	1F	-ſon	-son	2r	.	.	.	.	.	4D\	le-	le-	.	.	.	1f	-y-	-i-	1dd	Chri-	Chri-
.	.	.	.	.	.	.	.	.	4g\	.	.	4E\	.	.	.	.	.	.	.	.	.	.	.
!LO:TX:t=P:problem=kreska pseudotaktowa:mod=	!	!	!	!	!	!LO:TX:t=P:problem=kreska pseudotaktowa:mod=	!	!	!	!	!	!	!	!	!	!	!	!	!	!	!	!	!
2D/	e-	e-	.	.	.	2A/	e-	e-	4a\	.	.	4F\	.	.	4D/	-ſon	-son	.	.	.	.	.	.
!	!	!	!	!	!	!	!	!	!LO:TX:t=P:problem=kreska pseudotaktowa:mod=	!	!	!	!	!	!LO:TX:t=P:problem=kreska pseudotaktowa:mod=	!	!	!	!	!	!	!	!
.	.	.	.	.	.	.	.	.	4b\	.	.	4D\	.	.	4d\	e-	e-	.	.	.	.	.	.
!	!	!	!	!	!	!	!	!	!	!	!	!LO:TX:t=P:problem=kreska pseudotaktowa:mod=	!	!	!	!	!	!	!	!	!LO:LB:g=original	!	!
4AA/	-le-	-le-	2r	.	.	2.A/	-le-	-le-	2cc\	.	.	1A	.	.	2c\	-le-	-le-	2e\	-ſon	-son	2ee\	-ſte	-ste
4BB/	.	.	.	.	.	.	.	.	.	.	.	.	.	.	.	.	.	.	.	.	.	.	.
!	!	!	!	!	!	!	!	!	!	!	!	!	!	!	!	!	!	!LO:LB:g=original	!	!	!	!	!
!	!	!	!	!	!	!	!	!	!	!	!	!	!	!	!	!	!	!LO:TX:t=P:problem=kreska pseudotaktowa:mod=	!	!	!LO:TX:t=P:problem=kreska pseudotaktowa:mod=	!	!
4C/	.	.	2.E/	e-	e-	.	.	.	1a\	-le-	-le-	.	.	.	2.e\	.	.	2A/	e-	e-	2cc\	e-	e-
!	!	!	!	!	!	!LO:TX:t=P:problem=kreska pseudotaktowa:mod=	!	!	!	!	!	!	!	!	!	!	!	!	!	!	!	!	!
4AA/	.	.	.	.	.	4c/	.	.	.	.	.	.	.	.	.	.	.	.	.	.	.	.	.
!	!	!	!	!	!	!LO:LB:g=original	!	!	!	!	!	!	!	!	!	!	!	!	!	!	!	!	!
=59-	=59-	=59-	=59-	=59-	=59-	=59-	=59-	=59-	=59-	=59-	=59-	=59-	=59-	=59-	=59-	=59-	=59-	=59-	=59-	=59-	=59-	=59-	=59-
*lig	*	*	*	*	*	*	*	*	*	*	*	*	*	*	*	*	*	*	*	*	*	*	*
1E	-y-	-i-	.	.	.	0e	-y-	-i-	.	.	.	0E	-y-	-i-	.	.	.	2B/	-le-	-le-	0b	-ley-	-lei-
.	.	.	4F#X/	.	.	.	.	.	.	.	.	.	.	.	8d\L	.	.	.	.	.	.	.	.
.	.	.	.	.	.	.	.	.	.	.	.	.	.	.	8c\J	.	.	.	.	.	.	.	.
.	.	.	4G#X/	.	.	.	.	.	4g#X/	.	.	.	.	.	1B	.	.	2e\	.	.	.	.	.
!	!	!	!LO:TX:t=P:problem=kreska pseudotaktowa:mod=	!	!	!	!	!	!LO:TX:t=P:problem=kreska pseudotaktowa:mod=	!	!	!	!	!	!	!	!	!	!	!	!	!	!
.	.	.	4A/	.	.	.	.	.	4f#X/	.	.	.	.	.	.	.	.	.	.	.	.	.	.
1EE	.	.	2B\	-le-	-le-	.	.	.	1g#X	-y-	-i-	.	.	.	.	.	.	1e	-y-	-i-	.	.	.
.	.	.	2E/	-y-	-i-	.	.	.	.	.	.	.	.	.	2B\	-y-	-i-	.	.	.	.	.	.
*Xlig	*	*	*	*	*	*	*	*	*	*	*	*	*	*	*	*	*	*	*	*	*	*	*
=60-	=60-	=60-	=60-	=60-	=60-	=60-	=60-	=60-	=60-	=60-	=60-	=60-	=60-	=60-	=60-	=60-	=60-	=60-	=60-	=60-	=60-	=60-	=60-
!LO:SIC:s=0AA;	!	!	!LO:SIC:s=0E;	!	!	!LO:SIC:s=0c#;	!	!	!LO:SIC:s=0a;	!	!	!LO:SIC:s=0AA;	!	!	!LO:SIC:s=0A;	!	!	!LO:SIC:s=0e;	!	!	!LO:SIC:s=0cc#;	!	!
0AAl;;	-ſon	-son	0El;;	-ſon	-son	0c#Xl;;	-ſon	-son	0al;;	-ſon	-son	0AAl;;	-ſon	-son	0Al;;	-ſon	-son	0el;;	-ſon	-son	0cc#Xl;;	-ſon	-son
*	*Xij	*Xij	*	*Xij	*Xij	*	*Xij	*Xij	*	*Xij	*Xij	*	*Xij	*Xij	*	*Xij	*Xij	*	*Xij	*Xij	*	*Xij	*Xij
!LO:LB:g=original	!	!	!	!	!	!	!	!	!	!	!	!	!	!	!	!	!	!	!	!	!	!	!
=61||	=61||	=61||	=61||	=61||	=61||	=61||	=61||	=61||	=61||	=61||	=61||	=61||	=61||	=61||	=61||	=61||	=61||	=61||	=61||	=61||	=61||	=61||	=61||
*M2/1	*	*	*M2/1	*	*	*M2/1	*	*	*M2/1	*	*	*M2/1	*	*	*M2/1	*	*	*M2/1	*	*	*M2/1	*	*
*met(C|)	*	*	*met(C|)	*	*	*met(C|)	*	*	*met(C|)	*	*	*met(C|)	*	*	*met(C|)	*	*	*met(C|)	*	*	*met(C|)	*	*
*mmet(c|)	*	*	*mmet(c|)	*	*	*mmet(c|)	*	*	*mmet(c|)	*	*	*mmet(c|)	*	*	*mmet(c|)	*	*	*mmet(c|)	*	*	*mmet(c|)	*	*
1.AA	Ky-	Ky-	1.E	Ky-	Ky-	1.c#X	Ky-	Ky-	1.a	Ky-	Ky-	1.A	Ky-	Ky-	1.A	Ky-	Ky-	1.e	Ky-	Ky-	1.cc#X	Ky-	Ky-
!LO:TX:t=P:problem=kreska pseudotaktowa:mod=	!	!	!	!	!	!	!	!	!LO:TX:t=P:problem=kreska pseudotaktowa:mod=	!	!	!LO:TX:t=P:problem=kreska pseudotaktowa:mod=	!	!	!LO:TX:t=P:problem=kreska pseudotaktowa:mod=	!	!	!LO:TX:t=P:problem=kreska pseudotaktowa:mod=	!	!	!LO:TX:t=P:problem=kreska pseudotaktowa:mod=	!	!
2AA/	-ri-	-ri-	2E/	-ri-	-ri-	2c#/	-ri-	-ri-	2a\	-ri-	-ri-	2A\	-ri-	-ri-	2A/	-rie	-rie	2e\	-ri-	-ri-	2cc#\	-ri-	-ri-
=62-	=62-	=62-	=62-	=62-	=62-	=62-	=62-	=62-	=62-	=62-	=62-	=62-	=62-	=62-	=62-	=62-	=62-	=62-	=62-	=62-	=62-	=62-	=62-
!	!	!	!LO:TX:t=P:problem=kreska pseudotaktowa:mod=	!	!	!LO:TX:t=P:problem=kreska pseudotaktowa:mod=	!	!	!LO:TX:a:t=4:mod=	!	!	!	!	!	!	!	!	!	!	!	!	!	!
!	!	!	!	!	!	!	!	!	!LO:TX:t=P:problem=kreska pseudotaktowa:mod=	!	!	!	!	!	!	!	!	!	!	!	!	!	!
0AA	-e	-e	0E	-e	-e	0c#y	-e	-e	00a	-e	-e	1.AA	-e	-e	0A	e-	e-	2.e\	-e	-e	2.cc#y\	-e	-e
!	!	!	!	!	!	!	!	!	!	!	!	!	!	!	!	!	!	!LO:TX:t=P:problem=kreska pseudotaktowa:mod=	!	!	!LO:TX:t=P:problem=kreska pseudotaktowa:mod=	!	!
.	.	.	.	.	.	.	.	.	.	.	.	.	.	.	.	.	.	4d\	e-	e-	4dd\	e-	e-
.	.	.	.	.	.	.	.	.	.	.	.	.	.	.	.	.	.	4c#X/	.	.	2ee\	-ley-	-lei-
.	.	.	.	.	.	.	.	.	.	.	.	.	.	.	.	.	.	4B/	.	.	.	.	.
*	*	*	*	*	*	*	*	*	*	*	*	*lig	*	*	*	*	*	*	*	*	*	*	*
.	.	.	.	.	.	.	.	.	.	.	.	1AA/	e-	e-	.	.	.	1c#X\	-ley-	-lei-	1e/	-ſon	-son
=63-	=63-	=63-	=63-	=63-	=63-	=63-	=63-	=63-	=63-	=63-	=63-	=63-	=63-	=63-	=63-	=63-	=63-	=63-	=63-	=63-	=63-	=63-	=63-
!LO:TX:t=P:problem=kreska pseudotaktowa:mod=	!	!	!	!	!	!	!	!	!	!	!	!	!	!	!LO:TX:t=P:problem=kreska pseudotaktowa:mod=	!	!	!	!	!	!	!	!
00r	.	.	00r	.	.	00r	.	.	.	.	.	.	.	.	0A	-ley-	-lei-	.	.	.	.	.	.
*	*	*	*	*	*	*	*	*	*	*	*	*col	*	*	*	*	*	*	*	*	*	*ij	*ij
!	!	!	!	!	!	!	!	!	!	!	!	!	!	!	!	!	!	!LO:TX:t=P:problem=kreska pseudotaktowa:mod=	!	!	!LO:TX:t=P:problem=kreska pseudotaktowa:mod=	!	!
.	.	.	.	.	.	.	.	.	.	.	.	2.D/	.	.	.	.	.	2d\	-ſon	-son	2f/	Ky-	Ky-
*	*	*	*	*	*	*	*	*	*	*	*	*Xlig	*	*	*	*	*	*	*ij	*ij	*	*	*
.	.	.	.	.	.	.	.	.	.	.	.	.	.	.	.	.	.	2f\	Ky-	Ky-	2d/	-ri-	-ri-
.	.	.	.	.	.	.	.	.	.	.	.	4D/	-ley-	-lei-	.	.	.	.	.	.	.	.	.
*	*	*	*	*	*	*	*	*	*	*	*	*Xcol	*	*	*	*	*	*	*	*	*	*	*
!	!	!	!	!	!	!	!	!	!	!	!	!LO:TX:t=P:problem=kreska pseudotaktowa:mod=	!	!	!	!	!	!	!	!	!LO:TX:t=P:problem=kreska pseudotaktowa:mod=	!	!
.	.	.	.	.	.	.	.	.	.	.	.	2C#X/	-ſon	-son	.	.	.	2e\	-ri-	-ri-	2e/	-e	-e
=64-	=64-	=64-	=64-	=64-	=64-	=64-	=64-	=64-	=64-	=64-	=64-	=64-	=64-	=64-	=64-	=64-	=64-	=64-	=64-	=64-	=64-	=64-	=64-
*	*	*	*	*	*	*	*	*	*	*	*	*	*ij	*ij	*	*	*	*	*	*	*	*	*
.	.	.	.	.	.	.	.	.	0r	.	.	2D/	e-	e-	2A/	-ſon	-son	2d\	-e	-e	2f/	e-	e-
*	*	*	*	*	*	*	*	*	*	*	*	*	*	*	*	*ij	*ij	*	*	*	*	*	*
!	!	!	!	!	!	!	!	!	!	!	!	!LO:TX:t=P:problem=kreska pseudotaktowa:mod=	!	!	!	!	!	!LO:TX:t=P:problem=kreska pseudotaktowa:mod=	!	!	!	!	!
.	.	.	.	.	.	.	.	.	.	.	.	2E\	.	.	1c	e-	e-	2G/	e-	e-	1e	-le-	-le-
!	!	!	!	!	!	!	!	!	!	!	!	!LO:LB:g=original	!	!	!	!	!	!	!	!	!	!	!
.	.	.	.	.	.	.	.	.	.	.	.	1F	-ley-	-lei-	.	.	.	1A	-ley-	-lei-	.	.	.
!	!	!	!	!	!	!	!	!	!	!	!	!	!	!	!	!	!	!	!	!	!LO:TX:t=P:problem=kreska pseudotaktowa:mod=	!	!
.	.	.	.	.	.	.	.	.	.	.	.	.	.	.	4B\	-ley-	-lei-	.	.	.	2d/	-y-	-i-
!	!	!	!	!	!	!	!	!	!	!	!	!	!	!	!LO:TX:t=P:problem=kreska pseudotaktowa:mod=	!	!	!	!	!	!	!	!
.	.	.	.	.	.	.	.	.	.	.	.	.	.	.	4A\	.	.	.	.	.	.	.	.
=65-	=65-	=65-	=65-	=65-	=65-	=65-	=65-	=65-	=65-	=65-	=65-	=65-	=65-	=65-	=65-	=65-	=65-	=65-	=65-	=65-	=65-	=65-	=65-
!	!	!	!	!	!	!	!	!	!	!	!	!LO:TX:t=P:problem=kreska pseudotaktowa:mod=	!	!	!LO:TX:t=P:problem=kreska pseudotaktowa:mod=	!	!	!LO:TX:t=P:problem=kreska pseudotaktowa:mod=	!	!	!LO:TX:t=P:problem=kreska pseudotaktowa:mod=	!	!
2r	.	.	2r	.	.	2r	.	.	2r	.	.	1E	-ſon	-son	1G#X	-ſon	-son	1B	-ſon	-son	1e	-ſon	-son
!	!	!	!LO:TX:t=P:problem=kreska pseudotaktowa:mod=	!	!	!	!	!	!	!	!	!	!	!	!	!	!	!	!	!	!	!	!
*	*	*	*	*	*	*	*	*	*lig	*ij	*ij	*	*	*	*	*	*	*	*	*	*	*	*
2E\	e-	e-	2G#X/	e-	e-	2B/	e-	e-	1e	Ky-	Ky-	.	.	.	.	.	.	.	.	.	.	.	.
2C/	-ley-	-lei-	2A\	-ley-	-lei-	2cny\	-ley-	-lei-	.	.	.	00r	.	.	00r	.	.	00r	.	.	00r	.	.
*	*	*	*	*	*	*	*	*	*col	*	*	*	*	*	*	*	*	*	*	*	*	*	*
!LO:TX:t=P:problem=kreska pseudotaktowa:mod=	!	!	!	!	!	!LO:TX:t=P:problem=kreska pseudotaktowa:mod=	!	!	!	!	!	!	!	!	!	!	!	!	!	!	!	!	!
2AA/	-ſon	-son	1c\	.	.	2e\	-ſon	-son	2.a\	.	.	.	.	.	.	.	.	.	.	.	.	.	.
*	*	*	*	*	*	*	*	*	*Xlig	*	*	*	*	*	*	*	*	*	*	*	*	*	*
=66-	=66-	=66-	=66-	=66-	=66-	=66-	=66-	=66-	=66-	=66-	=66-	=66-	=66-	=66-	=66-	=66-	=66-	=66-	=66-	=66-	=66-	=66-	=66-
*	*ij	*ij	*	*	*	*	*ij	*ij	*	*	*	*	*	*	*	*	*	*	*	*	*	*	*
1E	Ky-	Ky-	.	.	.	1e	Ky-	Ky-	.	.	.	.	.	.	.	.	.	.	.	.	.	.	.
.	.	.	.	.	.	.	.	.	4a\	-ri-	-ri-	.	.	.	.	.	.	.	.	.	.	.	.
*	*	*	*	*	*	*	*	*	*Xcol	*	*	*	*	*	*	*	*	*	*	*	*	*	*
!	!	!	!LO:TX:t=P:problem=kreska pseudotaktowa:mod=	!	!	!	!	!	!LO:TX:t=P:problem=kreska pseudotaktowa:mod=	!	!	!	!	!	!	!	!	!	!	!	!	!	!
.	.	.	2B\	-ſon	-son	.	.	.	2g#X\	-e	-e	.	.	.	.	.	.	.	.	.	.	.	.
*	*	*	*	*ij	*ij	*	*	*	*	*Xij	*Xij	*	*	*	*	*	*	*	*	*	*	*	*
*	*	*	*	*	*	*	*	*	*custos:b	*	*	*	*	*	*	*	*	*	*	*	*	*	*
2D\	-ri-	-ri-	1d	e-	e-	2f#X\	-ri-	-ri-	2a\	.	.	.	.	.	.	.	.	.	.	.	.	.	.
!	!	!	!	!	!	!	!	!	!LO:LB:g=original	!	!	!	!	!	!	!	!	!	!	!	!	!	!
!LO:TX:t=P:problem=kreska pseudotaktowa:mod=	!	!	!	!	!	!LO:TX:t=P:problem=kreska pseudotaktowa:mod=	!	!	!LO:TX:t=P:problem=kreska pseudotaktowa:mod=	!	!	!	!	!	!	!	!	!	!	!	!	!	!
2G\	-e	-e	.	.	.	2g\	-e	-e	2b\	.	.	.	.	.	.	.	.	.	.	.	.	.	.
=67-	=67-	=67-	=67-	=67-	=67-	=67-	=67-	=67-	=67-	=67-	=67-	=67-	=67-	=67-	=67-	=67-	=67-	=67-	=67-	=67-	=67-	=67-	=67-
4C\	e-	e-	1.e	-le-	-le-	1g	e-	e-	1.cc	e-	e-	.	.	.	.	.	.	.	.	.	.	.	.
4D\	.	.	.	.	.	.	.	.	.	.	.	.	.	.	.	.	.	.	.	.	.	.	.
4E\	.	.	.	.	.	.	.	.	.	.	.	.	.	.	.	.	.	.	.	.	.	.	.
4F\	.	.	.	.	.	.	.	.	.	.	.	.	.	.	.	.	.	.	.	.	.	.	.
!LO:TX:t=P:problem=kreska pseudotaktowa:mod=	!	!	!	!	!	!	!	!	!	!	!	!LO:TX:t=P:problem=kreska pseudotaktowa:mod=	!	!	!LO:TX:t=P:problem=kreska pseudotaktowa:mod=	!	!	!LO:TX:t=P:problem=kreska pseudotaktowa:mod=	!	!	!LO:TX:t=P:problem=kreska pseudotaktowa:mod=	!	!
1G	-le-	-le-	.	.	.	2.g\	-le-	-le-	.	.	.	0r	.	.	0r	.	.	0r	.	.	0r	.	.
!	!	!	!	!	!	!	!	!	!LO:TX:t=P:problem=kreska pseudotaktowa:mod=	!	!	!	!	!	!	!	!	!	!	!	!	!	!
.	.	.	1d\	.	.	.	.	.	2b\	-le-	-le-	.	.	.	.	.	.	.	.	.	.	.	.
!	!	!	!	!	!	!LO:TX:t=P:problem=kreska pseudotaktowa:mod=	!	!	!	!	!	!	!	!	!	!	!	!	!	!	!	!	!
.	.	.	.	.	.	4fny\	.	.	.	.	.	.	.	.	.	.	.	.	.	.	.	.	.
=68-	=68-	=68-	=68-	=68-	=68-	=68-	=68-	=68-	=68-	=68-	=68-	=68-	=68-	=68-	=68-	=68-	=68-	=68-	=68-	=68-	=68-	=68-	=68-
1A	-y-	-i-	.	.	.	4e\	.	.	1a	-y-	-i-	.	.	.	.	.	.	.	.	.	.	.	.
.	.	.	.	.	.	4d\	.	.	.	.	.	.	.	.	.	.	.	.	.	.	.	.	.
.	.	.	2c#X\	-y-	-i-	2e\	.	.	.	.	.	.	.	.	.	.	.	.	.	.	.	.	.
!LO:TX:t=P:problem=kreska pseudotaktowa:mod=	!	!	!LO:TX:t=P:problem=kreska pseudotaktowa:mod=	!	!	!	!	!	!LO:TX:t=P:problem=kreska pseudotaktowa:mod=	!	!	!	!	!	!	!	!	!	!	!	!	!	!
1D	-ſon	-son	1d	-ſon	-son	2d\	-y-	-i-	1a	-ſon	-son	1.D	e-	e-	1.A	e-	e-	1.f	e-	e-	2r	.	.
!	!	!	!	!	!	!LO:TX:t=P:problem=kreska pseudotaktowa:mod=	!	!	!	!	!	!	!	!	!	!	!	!	!	!	!	!	!
.	.	.	.	.	.	2A/	-ſon	-son	.	.	.	.	.	.	.	.	.	.	.	.	1d/	e-	e-
!	!	!	!LO:LB:g=original	!	!	!	!	!	!	!	!	!	!	!	!	!	!	!	!	!	!	!	!
=69-	=69-	=69-	=69-	=69-	=69-	=69-	=69-	=69-	=69-	=69-	=69-	=69-	=69-	=69-	=69-	=69-	=69-	=69-	=69-	=69-	=69-	=69-	=69-
!LO:N:vis=1	!	!	!LO:TX:t=P:problem=kreska pseudotaktowa:mod=	!	!	!	!	!	!	!	!	!	!	!	!	!	!	!	!	!	!	!	!
0r	.	.	0r	.	.	0r	.	.	0r	.	.	.	.	.	.	.	.	.	.	.	.	.	.
!	!	!	!	!	!	!	!	!	!	!	!	!LO:TX:t=P:problem=kreska pseudotaktowa:mod=	!	!	!	!	!	!LO:TX:t=P:problem=kreska pseudotaktowa:mod=	!	!	!LO:TX:t=P:problem=kreska pseudotaktowa:mod=	!	!
.	.	.	.	.	.	.	.	.	.	.	.	2C#X/	-le-	-le-	2A/	-le-	-le-	2e\	-le-	-le-	2e/	-le-	-le-
!	!	!	!	!	!	!	!	!	!	!	!	!	!	!	!	!	!	!	!	!	!LO:LB:g=original	!	!
.	.	.	.	.	.	.	.	.	.	.	.	1D	-y-	-i-	1A	-y-	-i-	1d	-y-	-i-	1f#X	-y-	-i-
=70-	=70-	=70-	=70-	=70-	=70-	=70-	=70-	=70-	=70-	=70-	=70-	=70-	=70-	=70-	=70-	=70-	=70-	=70-	=70-	=70-	=70-	=70-	=70-
!	!	!	!	!	!	!	!	!	!	!	!	!LO:TX:t=P:problem=kreska pseudotaktowa:mod=	!	!	!LO:TX:t=P:problem=kreska pseudotaktowa:mod=	!	!	!LO:TX:t=P:problem=kreska pseudotaktowa:mod=	!	!	!LO:TX:t=P:problem=kreska pseudotaktowa:mod=	!	!
2r	.	.	2r	.	.	2r	.	.	2r	.	.	1GG	-ſon	-son	0Gny	-ſon	-son	1d	-ſon	-son	1g	-ſon	-son
*	*	*	*	*	*	*	*	*	*	*ij	*ij	*	*	*	*	*	*	*	*	*	*	*	*
2.G\	Ky-	Ky-	2.d\	Ky-	Ky-	2.g\	Ky-	Ky-	2.b\	Ky-	Ky-	.	.	.	.	.	.	.	.	.	.	.	.
!	!	!	!	!	!	!	!	!	!	!	!	!	!	!	!	!	!	!LO:TX:a:t=2:mod=	!	!	!LO:TX:t=P:problem=kreska pseudotaktowa:mod=	!	!
.	.	.	.	.	.	.	.	.	.	.	.	0r	.	.	.	.	.	0r	.	.	0r	.	.
4G\	-ri-	-ri-	4d\	-ri-	-ri-	4g\	-ri-	-ri-	4b\	-ri-	-ri-	.	.	.	.	.	.	.	.	.	.	.	.
!LO:TX:t=P:problem=kreska pseudotaktowa:mod=	!	!	!LO:TX:t=P:problem=kreska pseudotaktowa:mod=	!	!	!LO:TX:t=P:problem=kreska pseudotaktowa:mod=	!	!	!LO:TX:t=P:problem=kreska pseudotaktowa:mod=	!	!	!	!	!	!	!	!	!	!	!	!	!	!
2C/	-e	-e	2e\	-e	-e	2g\	-e	-e	2cc\	-e	-e	.	.	.	.	.	.	.	.	.	.	.	.
!	!	!	!	!	!	!LO:LB:g=original	!	!	!	!	!	!	!	!	!	!	!	!	!	!	!	!	!
=71-	=71-	=71-	=71-	=71-	=71-	=71-	=71-	=71-	=71-	=71-	=71-	=71-	=71-	=71-	=71-	=71-	=71-	=71-	=71-	=71-	=71-	=71-	=71-
4D\	e-	e-	4d\	e-	e-	4f\	e-	e-	4a\	e-	e-	.	.	.	1r	.	.	.	.	.	.	.	.
4F\	-le-	-le-	4A\	-le-	-le-	4d\	-le-	-le-	4a\	-le-	-le-	.	.	.	.	.	.	.	.	.	.	.	.
!LO:TX:t=P:problem=kreska pseudotaktowa:mod=	!	!	!	!	!	!	!	!	!LO:TX:t=P:problem=kreska pseudotaktowa:mod=	!	!	!	!	!	!	!	!	!	!	!	!	!	!
2E\	-y-	-i-	2B\	-i-	-i-	2e\	-y-	-i-	2g#X\	-y-	-i-	.	.	.	.	.	.	.	.	.	.	.	.
!	!	!	!LO:TX:t=P:problem=kreska pseudotaktowa:mod=	!	!	!LO:TX:t=P:problem=kreska pseudotaktowa:mod=	!	!	!LO:TX:t=P:problem=kreska pseudotaktowa:mod=	!	!	!	!	!	!	!	!	!LO:LB:g=original	!	!	!	!	!
1AA	-ſon	-son	1A	-son	-son	1e	-ſon	-son	1a	-ſon	-son	2r	.	.	2r	.	.	2r	.	.	2r	.	.
.	.	.	.	.	.	.	.	.	.	.	.	1A\	e-	e-	1A\	e-	e-	1e\	e-	e-	1ccny\	e-	e-
=72-	=72-	=72-	=72-	=72-	=72-	=72-	=72-	=72-	=72-	=72-	=72-	=72-	=72-	=72-	=72-	=72-	=72-	=72-	=72-	=72-	=72-	=72-	=72-
!LO:TX:t=P:problem=kreska pseudotaktowa:mod=	!	!	!	!	!	!LO:TX:a:t=2	!	!	!	!	!	!	!	!	!	!	!	!	!	!	!	!	!
0r	.	.	0r	.	.	0r	.	.	0r	.	.	.	.	.	.	.	.	.	.	.	.	.	.
!	!	!	!	!	!	!	!	!	!	!	!	!LO:TX:t=P:problem=kreska pseudotaktowa:mod=	!	!	!LO:TX:t=P:problem=kreska pseudotaktowa:mod=	!	!	!LO:TX:t=P:problem=kreska pseudotaktowa:mod=	!	!	!LO:TX:t=P:problem=kreska pseudotaktowa:mod=	!	!
.	.	.	.	.	.	.	.	.	.	.	.	2G#X\	-le-	-le-	2B\	-le-	-le-	2e\	-le-	-le-	2b\	-le-	-le-
!	!	!	!	!	!	!	!	!	!	!	!	!	!	!	!LO:LB:g=original	!	!	!	!	!	!	!	!
.	.	.	.	.	.	.	.	.	.	.	.	1A	-y-	-i-	1c#X	-y-	-i-	1e	-y-	-i-	1a	-y-	-i-
!LO:LB:g=original	!	!	!	!	!	!	!	!	!	!	!	!	!	!	!	!	!	!	!	!	!	!	!
=73-	=73-	=73-	=73-	=73-	=73-	=73-	=73-	=73-	=73-	=73-	=73-	=73-	=73-	=73-	=73-	=73-	=73-	=73-	=73-	=73-	=73-	=73-	=73-
!	!	!	!	!	!	!	!	!	!	!	!	!LO:TX:t=P:problem=kreska pseudotaktowa:mod=	!	!	!LO:TX:t=P:problem=kreska pseudotaktowa:mod=	!	!	!LO:TX:t=P:problem=kreska pseudotaktowa:mod=	!	!	!LO:TX:t=P:problem=kreska pseudotaktowa:mod=	!	!
2r	.	.	2r	.	.	2r	.	.	2r	.	.	1D	-ſon	-son	1d	-ſon	-son	1f#X	-ſon	-son	1a	-ſon	-son
1D	e-	e-	1F#X	e-	e-	1d	e-	e-	1a	e-	e-	.	.	.	.	.	.	.	.	.	.	.	.
.	.	.	.	.	.	.	.	.	.	.	.	0r	.	.	0r	.	.	0r	.	.	0r	.	.
!LO:TX:t=P:problem=kreska pseudotaktowa:mod=	!	!	!LO:TX:t=P:problem=kreska pseudotaktowa:mod=	!	!	!LO:TX:t=P:problem=kreska pseudotaktowa:mod=	!	!	!LO:TX:t=P:problem=kreska pseudotaktowa:mod=	!	!	!	!	!	!	!	!	!	!	!	!	!	!
2BB/	-le-	-le-	2Gny/	-le-	-le-	2d\	-le-	-le-	2dd\	-le-	-le-	.	.	.	.	.	.	.	.	.	.	.	.
=74-	=74-	=74-	=74-	=74-	=74-	=74-	=74-	=74-	=74-	=74-	=74-	=74-	=74-	=74-	=74-	=74-	=74-	=74-	=74-	=74-	=74-	=74-	=74-
1C	-y-	-i-	1G	-y-	-i-	1e	-y-	-i-	1cc	-y-	-i-	.	.	.	.	.	.	.	.	.	.	.	.
!LO:TX:t=P:problem=kreska pseudotaktowa:mod=	!	!	!LO:TX:t=P:problem=kreska pseudotaktowa:mod=	!	!	!LO:TX:t=P:problem=kreska pseudotaktowa:mod=	!	!	!LO:TX:t=P:problem=kreska pseudotaktowa:mod=	!	!	!	!	!	!	!	!	!	!	!	!	!	!
1GG	-ſon	-son	1G	-ſon	-son	1d	-ſon	-son	1b	-ſon	-son	2r	.	.	2r	.	.	2r	.	.	2r	.	.
.	.	.	.	.	.	.	.	.	.	.	.	1Gny\	e-	e-	1d\	e-	e-	1g\	e-	e-	1b\	e-	e-
=75-	=75-	=75-	=75-	=75-	=75-	=75-	=75-	=75-	=75-	=75-	=75-	=75-	=75-	=75-	=75-	=75-	=75-	=75-	=75-	=75-	=75-	=75-	=75-
00r	.	.	00r	.	.	00r	.	.	00r	.	.	.	.	.	.	.	.	.	.	.	.	.	.
!	!	!	!	!	!	!	!	!	!	!	!	!LO:TX:t=P:problem=kreska pseudotaktowa:mod=	!	!	!LO:TX:t=P:problem=kreska pseudotaktowa:mod=	!	!	!LO:TX:t=P:problem=kreska pseudotaktowa:mod=	!	!	!LO:TX:t=P:problem=kreska pseudotaktowa:mod=	!	!
.	.	.	.	.	.	.	.	.	.	.	.	2E\	-le-	-le-	2e\	-le-	-le-	2g\	-le-	-le-	2cc\	-le-	-le-
!	!	!	!	!	!	!	!	!	!	!	!	!	!	!	!	!	!	!	!	!	!LO:TX:t=P:problem=kreska pseudotaktowa:mod=	!	!
.	.	.	.	.	.	.	.	.	.	.	.	1F	-y-	-i-	1cny	-y-	-i-	1fny	-y-	-i-	1a	-y-	-i-
=76-	=76-	=76-	=76-	=76-	=76-	=76-	=76-	=76-	=76-	=76-	=76-	=76-	=76-	=76-	=76-	=76-	=76-	=76-	=76-	=76-	=76-	=76-	=76-
.	.	.	.	.	.	.	.	.	.	.	.	2Cny/	-ſon	-son	2c\	-ſon	-son	2e\	-ſon	-son	2g/	-ſon	-son
.	.	.	.	.	.	.	.	.	.	.	.	2.c\	Ky-	Ky-	2.e\	Ky-	Ky-	2.g\	Ky-	Ky-	4r	.	.
.	.	.	.	.	.	.	.	.	.	.	.	.	.	.	.	.	.	.	.	.	2cc\	Ky-	Ky-
.	.	.	.	.	.	.	.	.	.	.	.	4c\	-ri-	-ri-	4e\	-ri-	-ri-	4g\	-ri-	-ri-	4cc\	-ri-	-ri-
!	!	!	!	!	!	!	!	!	!	!	!	!LO:TX:t=P:problem=kreska pseudotaktowa:mod=	!	!	!LO:TX:t=P:problem=kreska pseudotaktowa:mod=	!	!	!LO:TX:t=P:problem=kreska pseudotaktowa:mod=	!	!	!LO:TX:t=P:problem=kreska pseudotaktowa:mod=	!	!
.	.	.	.	.	.	.	.	.	.	.	.	2F\	-e	-e	2c\	-e	-e	2f\	-e	-e	2a\	-e	-e
=77-	=77-	=77-	=77-	=77-	=77-	=77-	=77-	=77-	=77-	=77-	=77-	=77-	=77-	=77-	=77-	=77-	=77-	=77-	=77-	=77-	=77-	=77-	=77-
!	!	!	!LO:TX:t=P:problem=kreska pseudotaktowa:mod=	!	!	!LO:TX:t=P:problem=kreska pseudotaktowa:mod=	!	!	!LO:TX:t=P:problem=kreska pseudotaktowa:mod=	!	!	!	!	!	!	!	!	!	!	!	!	!	!
1r	.	.	1r	.	.	1r	.	.	1r	.	.	4G\	e-	e-	4B\	e-	e-	4d\	e-	e-	4g/	e-	e-
.	.	.	.	.	.	.	.	.	.	.	.	4B-X\	-le-	-le-	4d\	-le-	-le-	4d\	-le-	-le-	4g/	-le-	-le-
!	!	!	!	!	!	!	!	!	!	!	!	!	!	!	!	!	!	!	!	!	!LO:TX:t=P:problem=kreska pseudotaktowa:mod=	!	!
.	.	.	.	.	.	.	.	.	.	.	.	2A\	-y-	-i-	2c#X\	-y-	-i-	2e\	-y-	-i-	2a\	-y-	-i-
!	!	!	!	!	!	!	!	!	!	!	!	!LO:TX:t=P:problem=kreska pseudotaktowa:mod=	!	!	!LO:TX:t=P:problem=kreska pseudotaktowa:mod=	!	!	!LO:TX:t=P:problem=kreska pseudotaktowa:mod=	!	!	!LO:TX:t=P:problem=kreska pseudotaktowa:mod=	!	!
2r	.	.	2r	.	.	2r	.	.	2r	.	.	1D	-ſon	-son	1d	-ſon	-son	1f#X	-ſon	-son	1a	-ſon	-son
!LO:TX:t=P::problem=kreska pseudotaktowa:między nutą a kropką:mod=	!	!	!	!	!	!	!	!	!	!	!	!	!	!	!	!	!	!	!	!	!	!	!
2.D/	Ky-	Ky-	2.d\	Ky-	Ky-	2.f#X\	Ky-	Ky-	2.a\	Ky-	Ky-	.	.	.	.	.	.	.	.	.	.	.	.
=78-	=78-	=78-	=78-	=78-	=78-	=78-	=78-	=78-	=78-	=78-	=78-	=78-	=78-	=78-	=78-	=78-	=78-	=78-	=78-	=78-	=78-	=78-	=78-
.	.	.	.	.	.	.	.	.	.	.	.	0r	.	.	0r	.	.	0r	.	.	0r	.	.
4D/	-ri-	-ri-	4d\	-ri-	-ri-	4f#y\	-ri-	-ri-	4a\	-ri-	-ri-	.	.	.	.	.	.	.	.	.	.	.	.
!LO:TX:t=P:problem=kreska pseudotaktowa:mod=	!	!	!LO:TX:t=P:problem=kreska pseudotaktowa:mod=	!	!	!LO:TX:t=P:problem=kreska pseudotaktowa:mod=	!	!	!LO:TX:t=P:problem=kreska pseudotaktowa:mod=	!	!	!	!	!	!	!	!	!	!	!	!	!	!
2BB/	-e	-e	2d\	-e	-e	2g\	-e	-e	2dd\	-e	-e	.	.	.	.	.	.	.	.	.	.	.	.
4C/	e-	e-	4G/	e-	e-	4e\	e-	e-	4cc\	e-	e-	.	.	.	.	.	.	.	.	.	.	.	.
4E\	-le-	-le-	4G/	-le-	-le-	4g\	-le-	-le-	4b\	-le-	-le-	.	.	.	.	.	.	.	.	.	.	.	.
!LO:TX:t=P:problem=kreska pseudotaktowa:mod=	!	!	!	!	!	!	!	!	!	!	!	!	!	!	!	!	!	!	!	!	!	!	!
2D/	y-	i-	2A/	-y-	-i-	2f#X\	-y-	-i-	2dd\	-y-	-i-	.	.	.	.	.	.	.	.	.	.	.	.
=79-	=79-	=79-	=79-	=79-	=79-	=79-	=79-	=79-	=79-	=79-	=79-	=79-	=79-	=79-	=79-	=79-	=79-	=79-	=79-	=79-	=79-	=79-	=79-
!	!	!	!LO:TX:t=P:problem=kreska pseudotaktowa:mod=	!	!	!LO:TX:t=P:problem=kreska pseudotaktowa:mod=	!	!	!LO:TX:t=P:problem=kreska pseudotaktowa:mod=	!	!	!	!	!	!	!	!	!	!	!	!	!	!
1GG	-ſon	-son	1G	-ſon	-son	1g	-ſon	-son	1b	-ſon	-son	2r	.	.	2r	.	.	2r	.	.	2r	.	.
.	.	.	.	.	.	.	.	.	.	.	.	2.G\	Ky-	Ky-	2.d\	Ky-	Ky-	2.g\	Ky-	Ky-	2.b\	Ky-	Ky-
!LO:TX:t=P:problem=kreska pseudotaktowa:mod=	!	!	!	!	!	!	!	!	!	!	!	!	!	!	!	!	!	!	!	!	!	!	!
0r	.	.	0r	.	.	0r	.	.	0r	.	.	.	.	.	.	.	.	.	.	.	.	.	.
.	.	.	.	.	.	.	.	.	.	.	.	4G\	-ri-	-ri-	4d\	-ri-	-ri-	4g\	-ri-	-ri-	4b\	-ri-	-ri-
!	!	!	!	!	!	!	!	!	!	!	!	!LO:TX:t=P:problem=kreska pseudotaktowa:mod=	!	!	!LO:TX:t=P:problem=kreska pseudotaktowa:mod=	!	!	!LO:TX:t=P:problem=kreska pseudotaktowa:mod=	!	!	!LO:TX:t=P:problem=kreska pseudotaktowa:mod=	!	!
.	.	.	.	.	.	.	.	.	.	.	.	2E\	-e	-e	2e\	-e	-e	2g\	-e	-e	2cc\	-e	-e
=80-	=80-	=80-	=80-	=80-	=80-	=80-	=80-	=80-	=80-	=80-	=80-	=80-	=80-	=80-	=80-	=80-	=80-	=80-	=80-	=80-	=80-	=80-	=80-
.	.	.	.	.	.	.	.	.	.	.	.	4F\	e-	e-	4cny\	e-	e-	4fny\	e-	e-	4a\	e-	e-
.	.	.	.	.	.	.	.	.	.	.	.	4A\	-le-	-le-	4c\	-le-	-le-	4e\	-le-	-le-	4cc\	-le-	-le-
!	!	!	!	!	!	!	!	!	!	!	!	!LO:LB:g=original	!	!	!	!	!	!	!	!	!	!	!
!	!	!	!	!	!	!	!	!	!	!	!	!LO:TX:t=P:problem=kreska pseudotaktowa:mod=	!	!	!LO:TX:t=P:problem=kreska pseudotaktowa:mod=	!	!	!LO:TX:t=P:problem=kreska pseudotaktowa:mod=	!	!	!LO:TX:t=P:problem=kreska pseudotaktowa:mod=	!	!
.	.	.	.	.	.	.	.	.	.	.	.	2G\	-y-	-i-	2d\	-y-	-i-	2g\	-y-	-i-	2b\	-y-	-i-
!	!	!	!	!	!	!	!	!	!	!	!	!	!	!	!	!	!	!	!	!	!LO:LB:g=original	!	!
2r	.	.	2r	.	.	2r	.	.	2r	.	.	2C/	-ſon	-son	2c\	-ſon	-son	2e\	-ſon	-son	2cc,<\	-ſon	-son
1C/	Ky-	Ky-	1G/	Ky-	Ky-	1e\	Ky-	Ky-	1ee\	Ky-	Ky-	1C/	Ky-	Ky-	2.c\	Ky-	Ky-	1g\	Ky-	Ky-	1cc\	Ky-	Ky-
*	*	*	*	*	*	*	*	*	*	*	*	*	*	*	*	*	*	*	*	*	*	*Xij	*Xij
=81-	=81-	=81-	=81-	=81-	=81-	=81-	=81-	=81-	=81-	=81-	=81-	=81-	=81-	=81-	=81-	=81-	=81-	=81-	=81-	=81-	=81-	=81-	=81-
.	.	.	.	.	.	.	.	.	.	.	.	.	.	.	4G/	-ri-	-ri-	.	.	.	.	.	.
!LO:TX:t=P:problem=kreska pseudotaktowa:mod=	!	!	!LO:TX:t=P:problem=kreska pseudotaktowa:mod=	!	!	!LO:TX:t=P:problem=kreska pseudotaktowa:mod=	!	!	!LO:TX:t=P:problem=kreska pseudotaktowa:mod=	!	!	!LO:TX:t=P:problem=kreska pseudotaktowa:mod=	!	!	!LO:TX:t=P:problem=kreska pseudotaktowa:mod=	!	!	!LO:TX:t=P:problem=kreska pseudotaktowa:mod=	!	!	!LO:TX:t=P:problem=kreska pseudotaktowa:mod=	!	!
2BB/	-ri-	-ri-	2G/	-ri-	-ri-	2g\	-ri-	-ri-	2dd\	-ri-	-ri-	2G\	-ri-	-ri-	2B\	-e	-e	2g\	-ri-	-ri-	2dd\	-ri-	-ri-
!	!	!	!	!	!	!	!	!	!LO:LB:g=original	!	!	!	!	!	!	!	!	!LO:TX:t=P:problem=kreska pseudotaktowa:mod=	!	!	!	!	!
1C	-e	-e	2G/	-e	-e	2.e\	-e	-e	1cc	-e	-e	2E\	-e	-e	2.G/	e-	e-	1g	-e	-e	1ee	-e	-e
.	.	.	2E/	e-	e-	.	.	.	.	.	.	2C/	e-	e-	.	.	.	.	.	.	.	.	.
.	.	.	.	.	.	4c\	e-	e-	.	.	.	.	.	.	4A/	-ley-	-lei-	.	.	.	.	.	.
!	!	!	!	!	!	!	!	!	!	!	!	!	!	!	!	!	!	!LO:LB:g=original	!	!	!	!	!
=82-	=82-	=82-	=82-	=82-	=82-	=82-	=82-	=82-	=82-	=82-	=82-	=82-	=82-	=82-	=82-	=82-	=82-	=82-	=82-	=82-	=82-	=82-	=82-
2GG/	e-	e-	2G/	-le-	-le-	4d\	.	.	2b\	e-	e-	2G\	-le-	-le-	2B\	-ſon	-son	2g\	e-	e-	2dd\	.	.
.	.	.	.	.	.	4g\	.	.	.	.	.	.	.	.	.	.	.	.	.	.	.	.	.
!LO:TX:t=P:problem=kreska pseudotaktowa:mod=	!	!	!LO:TX:t=P:problem=kreska pseudotaktowa:mod=	!	!	!	!	!	!LO:TX:t=P:problem=kreska pseudotaktowa:mod=	!	!	!LO:TX:t=P:problem=kreska pseudotaktowa:mod=	!	!	!	!	!	!LO:TX:t=P:problem=kreska pseudotaktowa:mod=	!	!	!LO:TX:t=P:problem=kreska pseudotaktowa:mod=	!	!
2C/	-ley-	-lei-	2G/	-y-	-i-	4e\	.	.	2cc\	-ley-	-lei-	2C/	-y-	-i-	4r	.	.	2g\	-ley-	-lei-	2ee\	e-	e-
!	!	!	!	!	!	!LO:TX:t=P:problem=kreska pseudotaktowa:mod=	!	!	!	!	!	!	!	!	!LO:TX:t=P:problem=kreska pseudotaktowa:mod=	!	!	!	!	!	!	!	!
.	.	.	.	.	.	4e\	-le-	-le-	.	.	.	.	.	.	4c\	e-	e-	.	.	.	.	.	.
4C/	-ſon	-son	4G/	-ſon	-son	4e\	-y-	-i-	4cc\	-ſon	-son	4E\	-ſon	-son	4c\	-le-	-le-	4g\	-ſon	-son	4ee\	-le-	-le-
4C/	e-	e-	4G/	e-	e-	2g\	-ſon	-son	4cc\	e-	e-	4E\	e-	e-	4c\	-y-	-i-	4g\	e-	e-	4ee\	-y-	-i-
!	!	!	!LO:TX:t=P:problem=kreska pseudotaktowa:mod=	!	!	!	!	!	!LO:TX:t=P:problem=kreska pseudotaktowa:mod=	!	!	!LO:TX:t=P:problem=kreska pseudotaktowa:mod=	!	!	!LO:LB:g=original	!	!	!LO:TX:t=P:problem=kreska pseudotaktowa:mod=	!	!	!LO:TX:t=P:problem=kreska pseudotaktowa:mod=	!	!
2GG/	-ley-	-lei-	2G/	-ley-	-lei-	.	.	.	2b\	-ley-	-lei-	2G\	-ley-	-lei-	4d\	-ſon	-son	2g\	-ley-	-lei-	2dd\	-ſon	-son
!	!	!	!	!	!	!	!	!	!	!	!	!	!	!	!LO:TX:t=P:problem=kreska pseudotaktowa:mod=	!	!	!	!	!	!	!	!
.	.	.	.	.	.	2d\	e-	e-	.	.	.	.	.	.	4B\	e-	e-	.	.	.	.	.	.
=83-	=83-	=83-	=83-	=83-	=83-	=83-	=83-	=83-	=83-	=83-	=83-	=83-	=83-	=83-	=83-	=83-	=83-	=83-	=83-	=83-	=83-	=83-	=83-
*	*	*	*	*	*	*	*	*	*	*	*	*	*	*	*	*	*	*	*	*	*	*ij	*ij
4D/	-ſon	-son	4A\	-ſon	-son	.	.	.	4a\	-ſon	-son	4D\	-ſon	-son	8d\L	-le-	-le-	4f\	-ſon	-son	4dd\	e-	e-
.	.	.	.	.	.	.	.	.	.	.	.	.	.	.	8A\	.	.	.	.	.	.	.	.
4AA/	e-	e-	4A\	e-	e-	4e\	-le-	-le-	4a\	e-	e-	4A\	e-	e-	8c\	.	.	4e\	e-	e-	4cc\	.	.
.	.	.	.	.	.	.	.	.	.	.	.	.	.	.	8d\J	.	.	.	.	.	.	.	.
!LO:TX:t=P:problem=kreska pseudotaktowa:mod=	!	!	!	!	!	!LO:TX:t=P:problem=kreska pseudotaktowa:mod=	!	!	!LO:TX:t=P:problem=kreska pseudotaktowa:mod=	!	!	!LO:TX:t=P:problem=kreska pseudotaktowa:mod=	!	!	!	!	!	!LO:TX:t=P:problem=kreska pseudotaktowa:mod=	!	!	!LO:TX:t=P:problem=kreska pseudotaktowa:mod=	!	!
2E\	-ley-	-lei-	4B\	-le-	-le-	2e\	-y-	-i-	2g#X\	-ley-	-lei-	2E\	-ley-	-lei-	4e\	.	.	2e\	-ley-	-lei-	2b\	-ley-	-lei-
!	!	!	!LO:TX:t=P:problem=kreska pseudotaktowa:mod=	!	!	!	!	!	!	!	!	!	!	!	!LO:TX:t=P:problem=kreska pseudotaktowa:mod=	!	!	!	!	!	!	!	!
.	.	.	4E/	-y-	-i-	.	.	.	.	.	.	.	.	.	4B\	-y-	-i-	.	.	.	.	.	.
!	!	!	!	!	!	!LO:LB:g=original	!	!	!	!	!	!	!	!	!	!	!	!	!	!	!	!	!
2AA/	-ſon	-son	2E/	-ſon	-son	2c/	-ſon	-son	2a\	-ſon	-son	2A\	-ſon	-son	2A/	-ſon	-son	2e\	-ſon	-son	2cc\	-ſon	-son
!	!	!	!LO:TX:t=P:problem=kreska pseudotaktowa:mod=	!	!	!LO:TX:t=P:problem=kreska pseudotaktowa:mod=	!	!	!LO:TX:t=P:problem=kreska pseudotaktowa:mod=	!	!	!	!	!	!LO:TX:t=P:problem=kreska pseudotaktowa:mod=	!	!	!LO:TX:t=P:problem=kreska pseudotaktowa:mod=	!	!	!LO:TX:t=P:problem=kreska pseudotaktowa:mod=	!	!
2AA/	Ky-	Ky-	2E/	Ky-	Ky-	2c/	Ky-	Ky-	2a\	Ky-	Ky-	2A\	Ky-	Ky-	2A/	Ky-	Ky-	2e\	Ky-	Ky-	2cc\	Ky-	Ky-
=84-	=84-	=84-	=84-	=84-	=84-	=84-	=84-	=84-	=84-	=84-	=84-	=84-	=84-	=84-	=84-	=84-	=84-	=84-	=84-	=84-	=84-	=84-	=84-
!!LO:MO:ori
!LO:TX:t=P:problem=niepotrzebnie powtórzony fragment w A 1	!	!	!LO:TX:t=P:problem=niepotrzebnie powtórzony fragment w A 1	!	!	!LO:TX:t=P:problem=niepotrzebnie powtórzony fragment w A 1	!	!	!LO:TX:t=P:problem=niepotrzebnie powtórzony fragment w A 1	!	!	!LO:TX:t=P:problem=niepotrzebnie powtórzony fragment w A 1	!	!	!LO:TX:t=P:problem=niepotrzebnie powtórzony fragment w A 1	!	!	!LO:TX:t=P:problem=niepotrzebnie powtórzony fragment	!	!	!LO:TX:t=P:problem=niepotrzebnie powtórzony fragment w A 1	!	!
2ryy	.	.	2ryy	.	.	2ryy	.	.	2ryy	.	.	2ryy	.	.	2ryy	.	.	2e\	.	.	2ryy	.	.
!!LO:MO:end
4E\	-rie	-rie	4E/	-rie	-rie	4B/	-rie	-rie	4b\	-rie	-rie	4E\	-rie	-rie	4G#X/	-rie	-rie	4e\	-rie	-rie	4ee\	-rie	-rie
!	!	!	!	!	!	!	!	!	!	!	!	!	!	!	!	!	!	!LO:TX:t=P:problem=kreska pseudotaktowa:mod=	!	!	!	!	!
4E\	e-	e-	4E/	e-	e-	4B/	e-	e-	4b\	e-	e-	4E\	e-	e-	4G#/	e-	e-	4e\	e-	e-	4ee\	e-	e-
!LO:TX:t=P:problem=kreska pseudotaktowa:mod=	!	!	!LO:TX:t=P:problem=kreska pseudotaktowa:mod=	!	!	!LO:TX:t=P:problem=kreska pseudotaktowa:mod=	!	!	!LO:TX:t=P:problem=kreska pseudotaktowa:mod=	!	!	!LO:TX:t=P:problem=kreska pseudotaktowa:mod=	!	!	!LO:TX:t=P:problem=kreska pseudotaktowa:mod=	!	!	!LO:TX:t=P:problem=kreska pseudotaktowa:mod=	!	!	!	!	!
2E\	-le-	-le-	2E/	-le-	-le-	2B/	-le-	-le-	2b\	-le-	-le-	2E\	-le-	-le-	2G#/	-le-	-le-	2e\	-le-	-le-	2ee\	-le-	-le-
0AA/	-y-	-i-	0E/	-y-	-i-	1.c\	.	.	0a\	-y-	-i-	1A\	.	.	1.A\	.	.	0e\	-y-	-i-	0cc\	-y-	-i-
=85-	=85-	=85-	=85-	=85-	=85-	=85-	=85-	=85-	=85-	=85-	=85-	=85-	=85-	=85-	=85-	=85-	=85-	=85-	=85-	=85-	=85-	=85-	=85-
.	.	.	.	.	.	.	.	.	.	.	.	1AA	-y-	-i-	.	.	.	.	.	.	.	.	.
.	.	.	.	.	.	2A/	-y-	-i-	.	.	.	.	.	.	2E/	-y-	-i-	.	.	.	.	.	.
!LO:SIC:s=1EE;	!	!	!LO:SIC:s=1E;	!	!	!LO:SIC:s=1B;	!	!	!LO:SIC:s=1g#;	!	!	!LO:SIC:s=1E;	!	!	!LO:SIC:s=1G#;	!	!	!LO:SIC:s=1e;	!	!	!LO:SIC:s=1b;	!	!
1EEl;;	-ſon	-son	1El;;	-ſon	-son	1Bl;;	-ſon	-son	1g#Xl;;	-ſon	-son	1El;;	-ſon	-son	1G#Xl;;	-ſon	-son	1el;;	-ſon	-son	1bl;;	-ſon	-son
*	*Xij	*Xij	*	*Xij	*Xij	*	*Xij	*Xij	*	*Xij	*Xij	*	*Xij	*Xij	*	*Xij	*Xij	*	*Xij	*Xij	*	*Xij	*Xij
==	==	==	==	==	==	==	==	==	==	==	==	==	==	==	==	==	==	==	==	==	==	==	==
*-	*-	*-	*-	*-	*-	*-	*-	*-	*-	*-	*-	*-	*-	*-	*-	*-	*-	*-	*-	*-	*-	*-	*-
!!!system-decoration: [(s1,s2,s3,s4)][(s5,s6,s7,s8)]
!!LO:MO:mod=ori
!!!RDF**kern: > = above
!!!RDF**kern: < = below
!!LO:MO:mod=end
!!!RDF**kern: l = terminal long
!!!RDF**kern: i = editorial accidental
!!!filter-modern: sic -sq | modori -m | autostem -r | tie -s | shed -e "s/-//B" | shed -e “s/:TX:t=P:∕:tx:t=p:/L” | shed -e "s/yy//" | shed -e "s/^custos:/Xcustos:/I"
!!!ENC: Andrzej Kubiczek
!!!END: 2021-08-13
!!!ENC: Katarzyna Serwa
!!!END: 2021-07-26
!!!ENC-modern: Marta Lawrence
!!!END-modern: 2022-06-20
!!!YEC: Copyright 2022 Narodowy Instytut Fryderyka Chopina (https://polishscores.org)
!!!YEM: License CC-BY-4.0 (https://creativecommons.org/licenses/by/4.0)
